(G-CODE GENERATED BY FLATCAM v8.994 - www.flatcam.org - Version Date: 2020/11/7)

(Name: drill_1_16.xln_cnc)
(Type: G-code from Geometry)
(Units: MM)

(Created on Saturday, 27 November 2021 at 20:32)

(This preprocessor is the default preprocessor used by FlatCAM.)
(It is made to work with MACH3 compatible motion controllers.)


(TOOLS DIAMETER: )
(Tool: 1 -> Dia: 1.016)
(Tool: 2 -> Dia: 1.194)
(Tool: 3 -> Dia: 2.362)

(FEEDRATE Z: )
(Tool: 1 -> Feedrate: 300)
(Tool: 2 -> Feedrate: 300)
(Tool: 3 -> Feedrate: 300)

(FEEDRATE RAPIDS: )
(Tool: 1 -> Feedrate Rapids: 1500)
(Tool: 2 -> Feedrate Rapids: 1500)
(Tool: 3 -> Feedrate Rapids: 1500)

(Z_CUT: )
(Tool: 1 -> Z_Cut: -1.9)
(Tool: 2 -> Z_Cut: -1.9)
(Tool: 3 -> Z_Cut: -1.9)

(Tools Offset: )
(Tool: 1 -> Offset Z: 0.0)
(Tool: 2 -> Offset Z: 0.0)
(Tool: 3 -> Offset Z: 0.0)

(Z_MOVE: )
(Tool: 1 -> Z_Move: 2)
(Tool: 2 -> Z_Move: 2)
(Tool: 3 -> Z_Move: 2)

(Z Toolchange: 8.0 mm)
(X,Y Toolchange: 0.0000, 0.0000 mm)
(Z Start: None mm)
(Z End: 0.5 mm)
(X,Y End: None mm)
(Steps per circle: 64)
(Preprocessor Excellon: default)

(X range:    2.4510 ...   20.7390  mm)
(Y range:    6.8600 ...   21.9710  mm)

(Spindle Speed: 1000 RPM)
G21
G90
G94

G01 F300.00

M5
G00 Z8.0000
T1
G00 X0.0000 Y0.0000                
M6
(MSG, Change to Tool Dia = 1.0160 ||| Total drills for tool T1 = 12)
M0
G00 Z8.0000

G01 F300.00
M03 S1000
G00 X7.8740 Y18.9230
G01 Z-1.9000
G01 Z0
G00 Z2.0000
G00 X7.8740 Y21.4630
G01 Z-1.9000
G01 Z0
G00 Z2.0000
G00 X12.9540 Y18.9230
G01 Z-1.9000
G01 Z0
G00 Z2.0000
G00 X12.9540 Y21.4630
G01 Z-1.9000
G01 Z0
G00 Z2.0000
G00 X18.0340 Y21.4630
G01 Z-1.9000
G01 Z0
G00 Z2.0000
G00 X18.0340 Y18.9230
G01 Z-1.9000
G01 Z0
G00 Z2.0000
G00 X19.5580 Y13.0410
G01 Z-1.9000
G01 Z0
G00 Z2.0000
G00 X19.5580 Y8.0410
G01 Z-1.9000
G01 Z0
G00 Z2.0000
G00 X11.9380 Y13.0410
G01 Z-1.9000
G01 Z0
G00 Z2.0000
G00 X11.9380 Y8.0410
G01 Z-1.9000
G01 Z0
G00 Z2.0000
G00 X3.0480 Y8.0410
G01 Z-1.9000
G01 Z0
G00 Z2.0000
G00 X3.0480 Y13.0410
G01 Z-1.9000
G01 Z0
G00 Z2.0000
M05
G00 Z0.50


