(G-CODE GENERATED BY FLATCAM v8.994 - www.flatcam.org - Version Date: 2020/11/7)

(Name: profile.gbr_cutout_1_cnc)
(Type: G-code from Geometry)
(Units: MM)

(Created on Saturday, 27 November 2021 at 20:51)

(This preprocessor is the default preprocessor used by FlatCAM.)
(It is made to work with MACH3 compatible motion controllers.)

(TOOL DIAMETER: 2.0 mm)
(Feedrate_XY: 150.0 mm/min)
(Feedrate_Z: 100.0 mm/min)
(Feedrate rapids 1500.0 mm/min)

(Z_Cut: -2.0 mm)
(DepthPerCut: 0.7 mm <=>3 passes)
(Z_Move: 2.0 mm)
(Z Start: None mm)
(Z End: 8.0 mm)
(X,Y End: None mm)
(Steps per circle: 64)
(Preprocessor Geometry: default)

(X range:   -1.2271 ...   26.8611  mm)
(Y range:   -1.2271 ...   26.6781  mm)

(Spindle Speed: 1000.0 RPM)
G21
G90
G94

G01 F150.00

M5
G00 Z15.0000
G00 X0.0000 Y0.0000
T1
M6    
(MSG, Change to Tool Dia = 2.0000)
M0
G00 Z15.0000

M03 S1000.0
G01 F150.00
G00 X-1.2271 Y9.8255
G01 F100.00
G01 Z-0.7000
G01 F150.00
G01 X-1.2271 Y-0.1271
G01 X-1.2218 Y-0.2349
G01 X-1.2059 Y-0.3417
G01 X-1.1797 Y-0.4464
G01 X-1.1433 Y-0.5480
G01 X-1.0972 Y-0.6456
G01 X-1.0417 Y-0.7382
G01 X-0.9774 Y-0.8249
G01 X-0.9049 Y-0.9049
G01 X-0.8249 Y-0.9774
G01 X-0.7382 Y-1.0417
G01 X-0.6456 Y-1.0972
G01 X-0.5480 Y-1.1433
G01 X-0.4464 Y-1.1797
G01 X-0.3417 Y-1.2059
G01 X-0.2349 Y-1.2218
G01 X-0.1271 Y-1.2271
G01 X9.9170 Y-1.2271
G00 X9.9170 Y-1.2271
G01 F100.00
G01 Z-1.4000
G01 F150.00
G01 X-0.1271 Y-1.2271
G01 X-0.2349 Y-1.2218
G01 X-0.3417 Y-1.2059
G01 X-0.4464 Y-1.1797
G01 X-0.5480 Y-1.1433
G01 X-0.6456 Y-1.0972
G01 X-0.7382 Y-1.0417
G01 X-0.8249 Y-0.9774
G01 X-0.9049 Y-0.9049
G01 X-0.9774 Y-0.8249
G01 X-1.0417 Y-0.7382
G01 X-1.0972 Y-0.6456
G01 X-1.1433 Y-0.5480
G01 X-1.1797 Y-0.4464
G01 X-1.2059 Y-0.3417
G01 X-1.2218 Y-0.2349
G01 X-1.2271 Y-0.1271
G01 X-1.2271 Y9.8255
G00 X-1.2271 Y9.8255
G01 F100.00
G01 Z-2.0000
G01 F150.00
G01 X-1.2271 Y-0.1271
G01 X-1.2218 Y-0.2349
G01 X-1.2059 Y-0.3417
G01 X-1.1797 Y-0.4464
G01 X-1.1433 Y-0.5480
G01 X-1.0972 Y-0.6456
G01 X-1.0417 Y-0.7382
G01 X-0.9774 Y-0.8249
G01 X-0.9049 Y-0.9049
G01 X-0.8249 Y-0.9774
G01 X-0.7382 Y-1.0417
G01 X-0.6456 Y-1.0972
G01 X-0.5480 Y-1.1433
G01 X-0.4464 Y-1.1797
G01 X-0.3417 Y-1.2059
G01 X-0.2349 Y-1.2218
G01 X-0.1271 Y-1.2271
G01 X9.9170 Y-1.2271
G00 Z2.0000
G00 X-1.2271 Y15.8255
G01 F100.00
G01 Z-0.7000
G01 F150.00
G01 X-1.2271 Y25.5781
G01 X-1.2218 Y25.6859
G01 X-1.2059 Y25.7927
G01 X-1.1797 Y25.8974
G01 X-1.1433 Y25.9990
G01 X-1.0972 Y26.0966
G01 X-1.0417 Y26.1892
G01 X-0.9774 Y26.2759
G01 X-0.9049 Y26.3559
G01 X-0.8249 Y26.4284
G01 X-0.7382 Y26.4927
G01 X-0.6456 Y26.5482
G01 X-0.5480 Y26.5943
G01 X-0.4464 Y26.6307
G01 X-0.3417 Y26.6569
G01 X-0.2349 Y26.6728
G01 X-0.1271 Y26.6781
G01 X9.9170 Y26.6781
G00 X9.9170 Y26.6781
G01 F100.00
G01 Z-1.4000
G01 F150.00
G01 X-0.1271 Y26.6781
G01 X-0.2349 Y26.6728
G01 X-0.3417 Y26.6569
G01 X-0.4464 Y26.6307
G01 X-0.5480 Y26.5943
G01 X-0.6456 Y26.5482
G01 X-0.7382 Y26.4927
G01 X-0.8249 Y26.4284
G01 X-0.9049 Y26.3559
G01 X-0.9774 Y26.2759
G01 X-1.0417 Y26.1892
G01 X-1.0972 Y26.0966
G01 X-1.1433 Y25.9990
G01 X-1.1797 Y25.8974
G01 X-1.2059 Y25.7927
G01 X-1.2218 Y25.6859
G01 X-1.2271 Y25.5781
G01 X-1.2271 Y15.8255
G00 X-1.2271 Y15.8255
G01 F100.00
G01 Z-2.0000
G01 F150.00
G01 X-1.2271 Y25.5781
G01 X-1.2218 Y25.6859
G01 X-1.2059 Y25.7927
G01 X-1.1797 Y25.8974
G01 X-1.1433 Y25.9990
G01 X-1.0972 Y26.0966
G01 X-1.0417 Y26.1892
G01 X-0.9774 Y26.2759
G01 X-0.9049 Y26.3559
G01 X-0.8249 Y26.4284
G01 X-0.7382 Y26.4927
G01 X-0.6456 Y26.5482
G01 X-0.5480 Y26.5943
G01 X-0.4464 Y26.6307
G01 X-0.3417 Y26.6569
G01 X-0.2349 Y26.6728
G01 X-0.1271 Y26.6781
G01 X9.9170 Y26.6781
G00 Z2.0000
G00 X15.9170 Y26.6781
G01 F100.00
G01 Z-0.7000
G01 F150.00
G01 X25.7611 Y26.6781
G01 X25.8689 Y26.6728
G01 X25.9757 Y26.6569
G01 X26.0804 Y26.6307
G01 X26.1820 Y26.5943
G01 X26.2796 Y26.5482
G01 X26.3722 Y26.4927
G01 X26.4589 Y26.4284
G01 X26.5389 Y26.3559
G01 X26.6114 Y26.2759
G01 X26.6757 Y26.1892
G01 X26.7312 Y26.0966
G01 X26.7773 Y25.9990
G01 X26.8137 Y25.8974
G01 X26.8399 Y25.7927
G01 X26.8558 Y25.6859
G01 X26.8611 Y25.5781
G01 X26.8611 Y15.8255
G00 X26.8611 Y15.8255
G01 F100.00
G01 Z-1.4000
G01 F150.00
G01 X26.8611 Y25.5781
G01 X26.8558 Y25.6859
G01 X26.8399 Y25.7927
G01 X26.8137 Y25.8974
G01 X26.7773 Y25.9990
G01 X26.7312 Y26.0966
G01 X26.6757 Y26.1892
G01 X26.6114 Y26.2759
G01 X26.5389 Y26.3559
G01 X26.4589 Y26.4284
G01 X26.3722 Y26.4927
G01 X26.2796 Y26.5482
G01 X26.1820 Y26.5943
G01 X26.0804 Y26.6307
G01 X25.9757 Y26.6569
G01 X25.8689 Y26.6728
G01 X25.7611 Y26.6781
G01 X15.9170 Y26.6781
G00 X15.9170 Y26.6781
G01 F100.00
G01 Z-2.0000
G01 F150.00
G01 X25.7611 Y26.6781
G01 X25.8689 Y26.6728
G01 X25.9757 Y26.6569
G01 X26.0804 Y26.6307
G01 X26.1820 Y26.5943
G01 X26.2796 Y26.5482
G01 X26.3722 Y26.4927
G01 X26.4589 Y26.4284
G01 X26.5389 Y26.3559
G01 X26.6114 Y26.2759
G01 X26.6757 Y26.1892
G01 X26.7312 Y26.0966
G01 X26.7773 Y25.9990
G01 X26.8137 Y25.8974
G01 X26.8399 Y25.7927
G01 X26.8558 Y25.6859
G01 X26.8611 Y25.5781
G01 X26.8611 Y15.8255
G00 Z2.0000
G00 X26.8611 Y9.8255
G01 F100.00
G01 Z-0.7000
G01 F150.00
G01 X26.8611 Y-0.1271
G01 X26.8558 Y-0.2349
G01 X26.8399 Y-0.3417
G01 X26.8137 Y-0.4464
G01 X26.7773 Y-0.5480
G01 X26.7312 Y-0.6456
G01 X26.6757 Y-0.7382
G01 X26.6114 Y-0.8249
G01 X26.5389 Y-0.9049
G01 X26.4589 Y-0.9774
G01 X26.3722 Y-1.0417
G01 X26.2796 Y-1.0972
G01 X26.1820 Y-1.1433
G01 X26.0804 Y-1.1797
G01 X25.9757 Y-1.2059
G01 X25.8689 Y-1.2218
G01 X25.7611 Y-1.2271
G01 X15.9170 Y-1.2271
G00 X15.9170 Y-1.2271
G01 F100.00
G01 Z-1.4000
G01 F150.00
G01 X25.7611 Y-1.2271
G01 X25.8689 Y-1.2218
G01 X25.9757 Y-1.2059
G01 X26.0804 Y-1.1797
G01 X26.1820 Y-1.1433
G01 X26.2796 Y-1.0972
G01 X26.3722 Y-1.0417
G01 X26.4589 Y-0.9774
G01 X26.5389 Y-0.9049
G01 X26.6114 Y-0.8249
G01 X26.6757 Y-0.7382
G01 X26.7312 Y-0.6456
G01 X26.7773 Y-0.5480
G01 X26.8137 Y-0.4464
G01 X26.8399 Y-0.3417
G01 X26.8558 Y-0.2349
G01 X26.8611 Y-0.1271
G01 X26.8611 Y9.8255
G00 X26.8611 Y9.8255
G01 F100.00
G01 Z-2.0000
G01 F150.00
G01 X26.8611 Y-0.1271
G01 X26.8558 Y-0.2349
G01 X26.8399 Y-0.3417
G01 X26.8137 Y-0.4464
G01 X26.7773 Y-0.5480
G01 X26.7312 Y-0.6456
G01 X26.6757 Y-0.7382
G01 X26.6114 Y-0.8249
G01 X26.5389 Y-0.9049
G01 X26.4589 Y-0.9774
G01 X26.3722 Y-1.0417
G01 X26.2796 Y-1.0972
G01 X26.1820 Y-1.1433
G01 X26.0804 Y-1.1797
G01 X25.9757 Y-1.2059
G01 X25.8689 Y-1.2218
G01 X25.7611 Y-1.2271
G01 X15.9170 Y-1.2271
G00 Z2.0000
M05
G00 Z2.0000
G00 Z8.00


