(G-CODE GENERATED BY FLATCAM v8.994 - www.flatcam.org - Version Date: 2020/11/7)

(Name: ArduinoCAN board-PTH.drl_1_cnc)
(Type: G-code from Geometry)
(Units: MM)

(Created on Wednesday, 29 March 2023 at 11:13)

(This preprocessor is the default preprocessor used by FlatCAM.)
(It is made to work with MACH3 compatible motion controllers.)


(TOOLS DIAMETER: )
(Tool: 1 -> Dia: 0.9)
(Tool: 2 -> Dia: 1.0)

(FEEDRATE Z: )
(Tool: 1 -> Feedrate: 300)
(Tool: 2 -> Feedrate: 300)

(FEEDRATE RAPIDS: )
(Tool: 1 -> Feedrate Rapids: 1500)
(Tool: 2 -> Feedrate Rapids: 1500)

(Z_CUT: )
(Tool: 1 -> Z_Cut: -1.7)
(Tool: 2 -> Z_Cut: -1.7)

(Tools Offset: )
(Tool: 1 -> Offset Z: 0.0)
(Tool: 2 -> Offset Z: 0.0)

(Z_MOVE: )
(Tool: 1 -> Z_Move: 2)
(Tool: 2 -> Z_Move: 2)

(Z Toolchange: 15 mm)
(X,Y Toolchange: 0.0000, 0.0000 mm)
(Z Start: None mm)
(Z End: 0.5 mm)
(X,Y End: None mm)
(Steps per circle: 64)
(Preprocessor Excellon: default)

(X range:    5.2308 ...   66.8420  mm)
(Y range:    2.9883 ...   55.4200  mm)

(Spindle Speed: 1000 RPM)
G21
G90
G94

G01 F300.00

M5
G00 Z5.0000
T1
G00 X0.0000 Y0.0000                
M6
(MSG, Change to Tool Dia = 0.9000 ||| Total drills for tool T1 = 74)
M0
G00 Z5.0000

G01 F300.00
M03 S1000
G00 X64.0430 Y36.3600
G01 Z-1.7000
G01 Z0
G00 Z2.0000
G00 X64.0430 Y33.8200
G01 Z-1.7000
G01 Z0
G00 Z2.0000
G00 X64.0430 Y29.5530
G01 Z-1.7000
G01 Z0
G00 Z2.0000
G00 X64.0430 Y27.0130
G01 Z-1.7000
G01 Z0
G00 Z2.0000
G00 X66.3420 Y16.2400
G01 Z-1.7000
G01 Z0
G00 Z2.0000
G00 X65.7329 Y3.4883
G01 Z-1.7000
G01 Z0
G00 Z2.0000
G00 X63.8020 Y16.2400
G01 Z-1.7000
G01 Z0
G00 Z2.0000
G00 X61.2620 Y16.2400
G01 Z-1.7000
G01 Z0
G00 Z2.0000
G00 X54.9120 Y20.4800
G01 Z-1.7000
G01 Z0
G00 Z2.0000
G00 X54.9120 Y17.9400
G01 Z-1.7000
G01 Z0
G00 Z2.0000
G00 X54.9120 Y15.4000
G01 Z-1.7000
G01 Z0
G00 Z2.0000
G00 X54.9120 Y12.8600
G01 Z-1.7000
G01 Z0
G00 Z2.0000
G00 X39.6720 Y15.4000
G01 Z-1.7000
G01 Z0
G00 Z2.0000
G00 X39.6720 Y12.8600
G01 Z-1.7000
G01 Z0
G00 Z2.0000
G00 X25.8000 Y8.2750
G01 Z-1.7000
G01 Z0
G00 Z2.0000
G00 X23.2600 Y8.2750
G01 Z-1.7000
G01 Z0
G00 Z2.0000
G00 X20.7200 Y8.2750
G01 Z-1.7000
G01 Z0
G00 Z2.0000
G00 X18.1800 Y8.2750
G01 Z-1.7000
G01 Z0
G00 Z2.0000
G00 X15.6400 Y8.2750
G01 Z-1.7000
G01 Z0
G00 Z2.0000
G00 X13.1000 Y8.2750
G01 Z-1.7000
G01 Z0
G00 Z2.0000
G00 X5.7308 Y3.5023
G01 Z-1.7000
G01 Z0
G00 Z2.0000
G00 X10.5600 Y8.2750
G01 Z-1.7000
G01 Z0
G00 Z2.0000
G00 X19.4500 Y36.8750
G01 Z-1.7000
G01 Z0
G00 Z2.0000
G00 X16.9100 Y36.8750
G01 Z-1.7000
G01 Z0
G00 Z2.0000
G00 X19.0720 Y50.1500
G01 Z-1.7000
G01 Z0
G00 Z2.0000
G00 X16.5320 Y50.1500
G01 Z-1.7000
G01 Z0
G00 Z2.0000
G00 X16.5320 Y54.9200
G01 Z-1.7000
G01 Z0
G00 Z2.0000
G00 X19.0720 Y54.9200
G01 Z-1.7000
G01 Z0
G00 Z2.0000
G00 X24.8090 Y54.4700
G01 Z-1.7000
G01 Z0
G00 Z2.0000
G00 X27.3490 Y54.4700
G01 Z-1.7000
G01 Z0
G00 Z2.0000
G00 X29.8890 Y54.4700
G01 Z-1.7000
G01 Z0
G00 Z2.0000
G00 X24.8090 Y50.0090
G01 Z-1.7000
G01 Z0
G00 Z2.0000
G00 X27.3490 Y50.0090
G01 Z-1.7000
G01 Z0
G00 Z2.0000
G00 X29.8890 Y50.0090
G01 Z-1.7000
G01 Z0
G00 Z2.0000
G00 X32.4290 Y50.0090
G01 Z-1.7000
G01 Z0
G00 Z2.0000
G00 X32.4290 Y54.4700
G01 Z-1.7000
G01 Z0
G00 Z2.0000
G00 X34.9690 Y54.4700
G01 Z-1.7000
G01 Z0
G00 Z2.0000
G00 X34.9690 Y50.0090
G01 Z-1.7000
G01 Z0
G00 Z2.0000
G00 X39.6720 Y48.4200
G01 Z-1.7000
G01 Z0
G00 Z2.0000
G00 X39.6720 Y45.8800
G01 Z-1.7000
G01 Z0
G00 Z2.0000
G00 X39.6720 Y43.3400
G01 Z-1.7000
G01 Z0
G00 Z2.0000
G00 X39.6720 Y40.8000
G01 Z-1.7000
G01 Z0
G00 Z2.0000
G00 X39.6720 Y38.2600
G01 Z-1.7000
G01 Z0
G00 Z2.0000
G00 X39.6720 Y35.7200
G01 Z-1.7000
G01 Z0
G00 Z2.0000
G00 X35.0840 Y36.7980
G01 Z-1.7000
G01 Z0
G00 Z2.0000
G00 X35.0840 Y34.2580
G01 Z-1.7000
G01 Z0
G00 Z2.0000
G00 X35.0840 Y31.7180
G01 Z-1.7000
G01 Z0
G00 Z2.0000
G00 X35.0840 Y29.1780
G01 Z-1.7000
G01 Z0
G00 Z2.0000
G00 X35.0840 Y26.6380
G01 Z-1.7000
G01 Z0
G00 Z2.0000
G00 X35.0840 Y24.0980
G01 Z-1.7000
G01 Z0
G00 Z2.0000
G00 X35.0840 Y21.5580
G01 Z-1.7000
G01 Z0
G00 Z2.0000
G00 X35.0840 Y19.0180
G01 Z-1.7000
G01 Z0
G00 Z2.0000
G00 X39.6720 Y17.9400
G01 Z-1.7000
G01 Z0
G00 Z2.0000
G00 X39.6720 Y20.4800
G01 Z-1.7000
G01 Z0
G00 Z2.0000
G00 X39.6720 Y23.0200
G01 Z-1.7000
G01 Z0
G00 Z2.0000
G00 X39.6720 Y25.5600
G01 Z-1.7000
G01 Z0
G00 Z2.0000
G00 X39.6720 Y28.1000
G01 Z-1.7000
G01 Z0
G00 Z2.0000
G00 X39.6720 Y30.6400
G01 Z-1.7000
G01 Z0
G00 Z2.0000
G00 X39.6720 Y33.1800
G01 Z-1.7000
G01 Z0
G00 Z2.0000
G00 X54.9120 Y23.0200
G01 Z-1.7000
G01 Z0
G00 Z2.0000
G00 X54.9120 Y25.5600
G01 Z-1.7000
G01 Z0
G00 Z2.0000
G00 X54.9120 Y28.1000
G01 Z-1.7000
G01 Z0
G00 Z2.0000
G00 X54.9120 Y30.6400
G01 Z-1.7000
G01 Z0
G00 Z2.0000
G00 X54.9120 Y33.1800
G01 Z-1.7000
G01 Z0
G00 Z2.0000
G00 X54.9120 Y35.7200
G01 Z-1.7000
G01 Z0
G00 Z2.0000
G00 X54.9120 Y38.2600
G01 Z-1.7000
G01 Z0
G00 Z2.0000
G00 X54.9120 Y40.8000
G01 Z-1.7000
G01 Z0
G00 Z2.0000
G00 X54.9120 Y43.3400
G01 Z-1.7000
G01 Z0
G00 Z2.0000
G00 X54.9120 Y45.8800
G01 Z-1.7000
G01 Z0
G00 Z2.0000
G00 X54.9120 Y48.4200
G01 Z-1.7000
G01 Z0
G00 Z2.0000
G00 X61.2620 Y49.6900
G01 Z-1.7000
G01 Z0
G00 Z2.0000
G00 X63.8020 Y49.6900
G01 Z-1.7000
G01 Z0
G00 Z2.0000
G00 X66.3420 Y49.6900
G01 Z-1.7000
G01 Z0
G00 Z2.0000
G00 X65.7256 Y43.4668
G01 Z-1.7000
G01 Z0
G00 Z2.0000
M05
G00 Z0.50


