(G-CODE GENERATED BY FLATCAM v8.994 - www.flatcam.org - Version Date: 2020/11/7)

(Name: ArduinoCAN board-B_Cu.gbr_iso_combined_cnc)
(Type: G-code from Geometry)
(Units: MM)

(Created on Wednesday, 29 March 2023 at 11:10)

(This preprocessor is the default preprocessor used by FlatCAM.)
(It is made to work with MACH3 compatible motion controllers.)

(TOOL DIAMETER: 0.2 mm)
(Feedrate_XY: 200.0 mm/min)
(Feedrate_Z: 100.0 mm/min)
(Feedrate rapids 1000.0 mm/min)

(Z_Cut: -0.08 mm)
(Z_Move: 2.0 mm)
(Z Start: None mm)
(Z End: 15.0 mm)
(X,Y End: None mm)
(Steps per circle: 64)
(Preprocessor Geometry: default)

(X range:    1.4700 ...   70.2500  mm)
(Y range:    1.3300 ...   57.4100  mm)

(Spindle Speed: 1000.0 RPM)
G21
G90
G94

G01 F200.00

M5
G00 Z15.0000
G00 X0.0000 Y0.0000
T2
M6    
(MSG, Change to Tool Dia = 0.2000)
M0
G00 Z15.0000

M03 S1000.0
G01 F200.00
G00 X3.7070 Y3.4607
G01 F100.00
G01 Z-0.0800
G01 F200.00
G01 X3.7066 Y3.4971
G01 X3.7254 Y3.7732
G01 X3.7810 Y4.0414
G01 X3.8724 Y4.2995
G01 X3.9980 Y4.5429
G01 X4.0073 Y4.5562
G01 X4.1555 Y4.7669
G01 X4.3419 Y4.9676
G01 X4.5538 Y5.1410
G01 X4.7873 Y5.2841
G01 X5.0381 Y5.3942
G01 X5.3014 Y5.4692
G01 X5.5726 Y5.5078
G01 X5.8464 Y5.5092
G01 X6.1179 Y5.4735
G01 X6.3821 Y5.4012
G01 X6.6340 Y5.2938
G01 X6.8690 Y5.1531
G01 X7.0827 Y4.9819
G01 X7.2712 Y4.7833
G01 X7.4310 Y4.5609
G01 X7.5591 Y4.3188
G01 X7.6533 Y4.0617
G01 X7.7116 Y3.7941
G01 X7.7331 Y3.5211
G01 X7.7173 Y3.2477
G01 X7.6646 Y2.9789
G01 X7.5759 Y2.7199
G01 X7.4528 Y2.4752
G01 X7.2977 Y2.2495
G01 X7.1134 Y2.0470
G01 X6.9033 Y1.8713
G01 X6.7059 Y1.7475
G01 X6.6962 Y1.7405
G01 X6.6908 Y1.7359
G01 X6.6858 Y1.7308
G01 X6.6355 Y1.6740
G01 X6.6295 Y1.6661
G01 X6.6231 Y1.6555
G01 X6.6199 Y1.6487
G01 X6.6173 Y1.6418
G01 X6.6152 Y1.6346
G01 X6.6136 Y1.6274
G01 X6.6019 Y1.5523
G01 X6.6011 Y1.5399
G01 X6.6015 Y1.5300
G01 X6.6035 Y1.5177
G01 X6.6054 Y1.5105
G01 X6.6078 Y1.5035
G01 X6.6385 Y1.4340
G01 X6.6442 Y1.4230
G01 X6.6497 Y1.4147
G01 X6.6561 Y1.4071
G01 X6.6631 Y1.4001
G01 X6.6688 Y1.3953
G01 X6.6749 Y1.3910
G01 X6.7342 Y1.3520
G01 X6.7425 Y1.3471
G01 X6.7535 Y1.3421
G01 X6.7603 Y1.3398
G01 X6.7673 Y1.3379
G01 X6.8112 Y1.3311
G01 X6.8186 Y1.3303
G01 X6.8260 Y1.3300
G01 X64.6202 Y1.3300
G01 X64.6320 Y1.3310
G01 X64.6437 Y1.3334
G01 X64.7141 Y1.3541
G01 X64.7212 Y1.3564
G01 X64.7280 Y1.3593
G01 X64.7389 Y1.3652
G01 X64.7451 Y1.3694
G01 X64.7509 Y1.3740
G01 X64.7564 Y1.3791
G01 X64.7615 Y1.3845
G01 X64.8096 Y1.4401
G01 X64.8155 Y1.4480
G01 X64.8218 Y1.4588
G01 X64.8249 Y1.4655
G01 X64.8274 Y1.4725
G01 X64.8295 Y1.4797
G01 X64.8310 Y1.4870
G01 X64.8418 Y1.5622
G01 X64.8425 Y1.5721
G01 X64.8422 Y1.5820
G01 X64.8413 Y1.5894
G01 X64.8399 Y1.5967
G01 X64.8379 Y1.6039
G01 X64.8354 Y1.6109
G01 X64.8018 Y1.6845
G01 X64.7981 Y1.6911
G01 X64.7939 Y1.6973
G01 X64.7893 Y1.7032
G01 X64.7842 Y1.7087
G01 X64.7769 Y1.7155
G01 X64.7416 Y1.7446
G01 X64.7318 Y1.7511
G01 X64.5884 Y1.8349
G01 X64.3729 Y2.0039
G01 X64.1823 Y2.2006
G01 X64.0202 Y2.4213
G01 X63.8895 Y2.6619
G01 X63.7927 Y2.9181
G01 X63.7316 Y3.1851
G01 X63.7070 Y3.4607
G01 X63.7066 Y3.4971
G01 X63.7254 Y3.7732
G01 X63.7810 Y4.0414
G01 X63.8724 Y4.2995
G01 X63.9980 Y4.5429
G01 X64.0073 Y4.5562
G01 X64.1555 Y4.7669
G01 X64.3419 Y4.9676
G01 X64.5538 Y5.1410
G01 X64.7873 Y5.2841
G01 X65.0381 Y5.3942
G01 X65.0574 Y5.3997
G01 X65.3014 Y5.4692
G01 X65.5726 Y5.5078
G01 X65.8464 Y5.5092
G01 X66.1179 Y5.4735
G01 X66.3821 Y5.4012
G01 X66.6340 Y5.2938
G01 X66.8690 Y5.1531
G01 X67.0827 Y4.9819
G01 X67.2712 Y4.7833
G01 X67.4310 Y4.5609
G01 X67.5591 Y4.3188
G01 X67.6533 Y4.0617
G01 X67.7116 Y3.7941
G01 X67.7331 Y3.5211
G01 X67.7173 Y3.2477
G01 X67.6646 Y2.9789
G01 X67.5759 Y2.7199
G01 X67.4528 Y2.4752
G01 X67.2977 Y2.2495
G01 X67.1134 Y2.0470
G01 X66.9033 Y1.8713
G01 X66.7059 Y1.7475
G01 X66.6981 Y1.7420
G01 X66.6908 Y1.7359
G01 X66.6842 Y1.7290
G01 X66.6371 Y1.6759
G01 X66.6295 Y1.6661
G01 X66.6243 Y1.6577
G01 X66.6199 Y1.6487
G01 X66.6165 Y1.6394
G01 X66.6140 Y1.6298
G01 X66.6019 Y1.5523
G01 X66.6011 Y1.5399
G01 X66.6018 Y1.5275
G01 X66.6040 Y1.5153
G01 X66.6078 Y1.5035
G01 X66.6395 Y1.4317
G01 X66.6442 Y1.4230
G01 X66.6483 Y1.4167
G01 X66.6544 Y1.4089
G01 X66.6613 Y1.4018
G01 X66.6688 Y1.3953
G01 X66.6749 Y1.3910
G01 X66.7362 Y1.3507
G01 X66.7425 Y1.3471
G01 X66.7490 Y1.3439
G01 X66.7603 Y1.3398
G01 X66.7720 Y1.3370
G01 X66.8137 Y1.3308
G01 X66.8260 Y1.3300
G01 X70.0264 Y1.3300
G01 X70.0382 Y1.3310
G01 X70.0499 Y1.3334
G01 X70.1227 Y1.3548
G01 X70.1297 Y1.3573
G01 X70.1387 Y1.3615
G01 X70.1472 Y1.3666
G01 X70.1552 Y1.3724
G01 X70.1608 Y1.3773
G01 X70.1660 Y1.3827
G01 X70.2158 Y1.4401
G01 X70.2231 Y1.4502
G01 X70.2280 Y1.4589
G01 X70.2329 Y1.4704
G01 X70.2363 Y1.4824
G01 X70.2482 Y1.5371
G01 X70.2495 Y1.5465
G01 X70.2500 Y1.5560
G01 X70.2500 Y57.1840
G01 X70.2493 Y57.1959
G01 X70.2472 Y57.2076
G01 X70.2252 Y57.2827
G01 X70.2217 Y57.2920
G01 X70.2173 Y57.3009
G01 X70.2121 Y57.3093
G01 X70.2076 Y57.3152
G01 X70.2027 Y57.3208
G01 X70.1973 Y57.3260
G01 X70.1399 Y57.3758
G01 X70.1298 Y57.3831
G01 X70.1211 Y57.3880
G01 X70.1096 Y57.3929
G01 X70.0976 Y57.3963
G01 X70.0429 Y57.4082
G01 X70.0335 Y57.4095
G01 X70.0240 Y57.4100
G01 X1.6960 Y57.4100
G01 X1.6841 Y57.4093
G01 X1.6724 Y57.4072
G01 X1.5973 Y57.3852
G01 X1.5880 Y57.3817
G01 X1.5791 Y57.3773
G01 X1.5728 Y57.3734
G01 X1.5648 Y57.3676
G01 X1.5592 Y57.3627
G01 X1.5540 Y57.3573
G01 X1.5042 Y57.2999
G01 X1.4969 Y57.2898
G01 X1.4920 Y57.2811
G01 X1.4871 Y57.2696
G01 X1.4837 Y57.2576
G01 X1.4718 Y57.2029
G01 X1.4705 Y57.1935
G01 X1.4700 Y57.1840
G01 X1.4700 Y1.5560
G01 X1.4707 Y1.5441
G01 X1.4728 Y1.5324
G01 X1.4956 Y1.4550
G01 X1.4993 Y1.4458
G01 X1.5052 Y1.4349
G01 X1.5109 Y1.4267
G01 X1.5173 Y1.4192
G01 X1.5245 Y1.4123
G01 X1.5801 Y1.3642
G01 X1.5881 Y1.3582
G01 X1.5989 Y1.3520
G01 X1.6080 Y1.3479
G01 X1.6200 Y1.3442
G01 X1.6771 Y1.3318
G01 X1.6865 Y1.3305
G01 X1.6936 Y1.3300
G01 X4.6202 Y1.3300
G01 X4.6320 Y1.3310
G01 X4.6437 Y1.3334
G01 X4.7188 Y1.3556
G01 X4.7303 Y1.3604
G01 X4.7389 Y1.3652
G01 X4.7471 Y1.3709
G01 X4.7546 Y1.3773
G01 X4.7615 Y1.3845
G01 X4.8096 Y1.4401
G01 X4.8169 Y1.4501
G01 X4.8229 Y1.4610
G01 X4.8274 Y1.4725
G01 X4.8306 Y1.4845
G01 X4.8418 Y1.5622
G01 X4.8425 Y1.5746
G01 X4.8420 Y1.5845
G01 X4.8404 Y1.5943
G01 X4.8371 Y1.6062
G01 X4.8335 Y1.6155
G01 X4.8040 Y1.6801
G01 X4.7994 Y1.6889
G01 X4.7954 Y1.6952
G01 X4.7877 Y1.7051
G01 X4.7807 Y1.7122
G01 X4.7452 Y1.7417
G01 X4.7378 Y1.7474
G01 X4.5884 Y1.8349
G01 X4.3729 Y2.0039
G01 X4.1823 Y2.2006
G01 X4.0202 Y2.4213
G01 X3.8895 Y2.6619
G01 X3.7927 Y2.9181
G01 X3.7316 Y3.1851
G01 X3.7070 Y3.4607
G00 Z2.0000
G00 X9.2992 Y8.9161
G01 F100.00
G01 Z-0.0800
G01 F200.00
G01 X9.2143 Y8.7113
G01 X9.1626 Y8.4957
G01 X9.1452 Y8.2747
G01 X9.1626 Y8.0536
G01 X9.2143 Y7.8381
G01 X9.2992 Y7.6332
G01 X9.4150 Y7.4442
G01 X9.5590 Y7.2756
G01 X9.7276 Y7.1316
G01 X9.9166 Y7.0158
G01 X10.1214 Y6.9310
G01 X10.3370 Y6.8792
G01 X10.5580 Y6.8618
G01 X10.7790 Y6.8792
G01 X10.9946 Y6.9310
G01 X11.1994 Y7.0158
G01 X11.3885 Y7.1316
G01 X11.5571 Y7.2756
G01 X11.6897 Y7.4307
G01 X11.6972 Y7.4379
G01 X11.7366 Y7.4698
G01 X11.7426 Y7.4741
G01 X11.7511 Y7.4791
G01 X11.7600 Y7.4833
G01 X11.7669 Y7.4858
G01 X11.7764 Y7.4884
G01 X11.8207 Y7.4980
G01 X12.1121 Y7.7893
G01 X12.0818 Y7.8537
G01 X12.0469 Y7.9507
G01 X12.0441 Y7.9601
G01 X12.0197 Y8.0577
G01 X12.0183 Y8.0649
G01 X12.0033 Y8.1669
G01 X11.9980 Y8.2747
G01 X12.0033 Y8.3825
G01 X12.0183 Y8.4844
G01 X12.0197 Y8.4917
G01 X12.0441 Y8.5893
G01 X12.0469 Y8.5986
G01 X12.0818 Y8.6956
G01 X12.1121 Y8.7600
G01 X11.8232 Y9.0489
G01 X11.8099 Y9.0499
G01 X11.7978 Y9.0520
G01 X11.7861 Y9.0556
G01 X11.7771 Y9.0595
G01 X11.7665 Y9.0655
G01 X11.7071 Y9.1043
G01 X11.6975 Y9.1114
G01 X11.6922 Y9.1162
G01 X11.6857 Y9.1231
G01 X11.5571 Y9.2737
G01 X11.3885 Y9.4177
G01 X11.3747 Y9.4263
G01 X11.3668 Y9.4323
G01 X11.3612 Y9.4374
G01 X11.3193 Y9.4784
G01 X11.3129 Y9.4857
G01 X11.3059 Y9.4956
G01 X11.3012 Y9.5041
G01 X11.2974 Y9.5130
G01 X11.2744 Y9.5904
G01 X11.2728 Y9.5973
G01 X11.2715 Y9.6067
G01 X11.2710 Y9.6163
G01 X11.2710 Y11.2352
G01 X11.2720 Y11.2471
G01 X11.2785 Y11.2900
G01 X11.2804 Y11.2973
G01 X11.2829 Y11.3045
G01 X11.2884 Y11.3164
G01 X11.2942 Y11.3359
G01 X11.2943 Y15.8252
G01 X11.2948 Y15.8332
G01 X11.2987 Y15.8672
G01 X11.3010 Y15.8768
G01 X11.3051 Y15.8884
G01 X11.3094 Y15.8972
G01 X11.3445 Y15.9616
G01 X11.3511 Y15.9715
G01 X11.3588 Y15.9806
G01 X35.3898 Y40.0115
G01 X35.4208 Y40.0363
G01 X35.4313 Y40.0426
G01 X35.4402 Y40.0467
G01 X35.4495 Y40.0499
G01 X35.5199 Y40.0706
G01 X35.5315 Y40.0730
G01 X35.5434 Y40.0740
G01 X38.5933 Y40.0740
G01 X38.6040 Y40.0734
G01 X38.6356 Y40.0699
G01 X38.6429 Y40.0685
G01 X38.6500 Y40.0666
G01 X38.6569 Y40.0641
G01 X38.6637 Y40.0611
G01 X38.7303 Y40.0249
G01 X38.7365 Y40.0212
G01 X38.7423 Y40.0171
G01 X38.7479 Y40.0127
G01 X38.7531 Y40.0078
G01 X38.8902 Y39.8707
G01 X39.0634 Y39.7494
G01 X39.0970 Y39.7337
G01 X39.1036 Y39.7301
G01 X39.1100 Y39.7260
G01 X39.1179 Y39.7198
G01 X39.1720 Y39.6729
G01 X39.1805 Y39.6641
G01 X39.1879 Y39.6544
G01 X39.1940 Y39.6438
G01 X39.1980 Y39.6348
G01 X39.2216 Y39.5575
G01 X39.2238 Y39.5479
G01 X39.2250 Y39.5380
G01 X39.2252 Y39.5306
G01 X39.2249 Y39.5231
G01 X39.2240 Y39.5157
G01 X39.2226 Y39.5084
G01 X39.2004 Y39.4306
G01 X39.1968 Y39.4213
G01 X39.1909 Y39.4104
G01 X39.1853 Y39.4022
G01 X39.1772 Y39.3928
G01 X39.1718 Y39.3877
G01 X39.1185 Y39.3408
G01 X39.1111 Y39.3348
G01 X39.1052 Y39.3308
G01 X39.0969 Y39.3262
G01 X39.0634 Y39.3106
G01 X38.8902 Y39.1893
G01 X38.7512 Y39.0503
G01 X38.7242 Y39.0281
G01 X38.7162 Y39.0224
G01 X38.7099 Y39.0186
G01 X38.7034 Y39.0152
G01 X38.6966 Y39.0124
G01 X38.6896 Y39.0101
G01 X38.6192 Y38.9894
G01 X38.6075 Y38.9870
G01 X38.5957 Y38.9860
G01 X36.6343 Y38.9860
G01 X36.6181 Y38.9866
G01 X36.6036 Y38.9879
G01 X36.5322 Y38.9860
G01 X36.4637 Y38.9860
G01 X36.4459 Y38.9837
G01 X36.3789 Y38.9670
G01 X36.3086 Y38.9512
G01 X36.2928 Y38.9456
G01 X36.2282 Y38.9136
G01 X36.1657 Y38.8844
G01 X36.1514 Y38.8756
G01 X36.0953 Y38.8304
G01 X36.0409 Y38.7888
G01 X36.0142 Y38.7574
G01 X36.0028 Y38.7450
G01 X35.3770 Y38.1193
G01 X35.3713 Y38.1140
G01 X35.3651 Y38.1091
G01 X35.3189 Y38.0776
G01 X35.3124 Y38.0742
G01 X35.3057 Y38.0712
G01 X35.2987 Y38.0687
G01 X35.2892 Y38.0662
G01 X35.2819 Y38.0649
G01 X35.2044 Y38.0547
G01 X35.1973 Y38.0545
G01 X35.1901 Y38.0549
G01 X35.1704 Y38.0576
G01 X34.9635 Y38.0551
G01 X34.7598 Y38.0188
G01 X34.5647 Y37.9497
G01 X34.3901 Y37.8533
G01 X34.3835 Y37.8497
G01 X34.2211 Y37.7214
G01 X34.0818 Y37.5684
G01 X33.9694 Y37.3946
G01 X33.8869 Y37.2048
G01 X33.8365 Y37.0041
G01 X33.8193 Y36.7950
G01 X33.8207 Y36.7391
G01 X33.8480 Y36.5310
G01 X33.9082 Y36.3330
G01 X33.9999 Y36.1475
G01 X34.1207 Y35.9794
G01 X34.2672 Y35.8333
G01 X34.4417 Y35.7089
G01 X34.4513 Y35.7006
G01 X34.4820 Y35.6706
G01 X34.4883 Y35.6631
G01 X34.4939 Y35.6551
G01 X34.4986 Y35.6467
G01 X34.5025 Y35.6377
G01 X34.5292 Y35.5666
G01 X34.5312 Y35.5595
G01 X34.5327 Y35.5522
G01 X34.5336 Y35.5448
G01 X34.5340 Y35.5373
G01 X34.5337 Y35.5274
G01 X34.5323 Y35.5176
G01 X34.5159 Y35.4409
G01 X34.5120 Y35.4291
G01 X34.5078 Y35.4201
G01 X34.5028 Y35.4115
G01 X34.4969 Y35.4035
G01 X34.4903 Y35.3961
G01 X34.4403 Y35.3457
G01 X34.4315 Y35.3378
G01 X34.4257 Y35.3335
G01 X34.4197 Y35.3297
G01 X34.3835 Y35.3097
G01 X34.2211 Y35.1814
G01 X34.0818 Y35.0284
G01 X33.9694 Y34.8546
G01 X33.8869 Y34.6648
G01 X33.8365 Y34.4641
G01 X33.8193 Y34.2550
G01 X33.8207 Y34.1991
G01 X33.8480 Y33.9910
G01 X33.9082 Y33.7930
G01 X33.9999 Y33.6075
G01 X34.1207 Y33.4394
G01 X34.2673 Y33.2933
G01 X34.4417 Y33.1689
G01 X34.4513 Y33.1606
G01 X34.4837 Y33.1288
G01 X34.4883 Y33.1231
G01 X34.4925 Y33.1172
G01 X34.4963 Y33.1110
G01 X34.4996 Y33.1045
G01 X34.5276 Y33.0313
G01 X34.5299 Y33.0243
G01 X34.5323 Y33.0146
G01 X34.5336 Y33.0048
G01 X34.5340 Y32.9949
G01 X34.5334 Y32.9850
G01 X34.5323 Y32.9776
G01 X34.5171 Y32.9057
G01 X34.5153 Y32.8985
G01 X34.5120 Y32.8891
G01 X34.5078 Y32.8801
G01 X34.5028 Y32.8715
G01 X34.4969 Y32.8635
G01 X34.4903 Y32.8561
G01 X34.4403 Y32.8057
G01 X34.4315 Y32.7978
G01 X34.4257 Y32.7935
G01 X34.4197 Y32.7897
G01 X34.3835 Y32.7697
G01 X34.2211 Y32.6414
G01 X34.0818 Y32.4884
G01 X33.9694 Y32.3146
G01 X33.8869 Y32.1248
G01 X33.8365 Y31.9241
G01 X33.8193 Y31.7150
G01 X33.8207 Y31.6591
G01 X33.8480 Y31.4510
G01 X33.9082 Y31.2530
G01 X33.9999 Y31.0675
G01 X34.1207 Y30.8994
G01 X34.2673 Y30.7533
G01 X34.4417 Y30.6289
G01 X34.4513 Y30.6206
G01 X34.4837 Y30.5888
G01 X34.4883 Y30.5831
G01 X34.4925 Y30.5772
G01 X34.4963 Y30.5710
G01 X34.4996 Y30.5645
G01 X34.5276 Y30.4913
G01 X34.5306 Y30.4819
G01 X34.5327 Y30.4722
G01 X34.5338 Y30.4623
G01 X34.5340 Y30.4549
G01 X34.5334 Y30.4450
G01 X34.5323 Y30.4376
G01 X34.5171 Y30.3657
G01 X34.5153 Y30.3585
G01 X34.5120 Y30.3491
G01 X34.5078 Y30.3401
G01 X34.5028 Y30.3315
G01 X34.4969 Y30.3235
G01 X34.4903 Y30.3161
G01 X34.4403 Y30.2657
G01 X34.4315 Y30.2578
G01 X34.4257 Y30.2535
G01 X34.4197 Y30.2497
G01 X34.3835 Y30.2297
G01 X34.2211 Y30.1014
G01 X34.0818 Y29.9484
G01 X33.9694 Y29.7746
G01 X33.8869 Y29.5848
G01 X33.8365 Y29.3841
G01 X33.8193 Y29.1750
G01 X33.8207 Y29.1191
G01 X33.8480 Y28.9110
G01 X33.9082 Y28.7130
G01 X33.9999 Y28.5275
G01 X34.1207 Y28.3594
G01 X34.2672 Y28.2133
G01 X34.4417 Y28.0889
G01 X34.4513 Y28.0806
G01 X34.4837 Y28.0488
G01 X34.4883 Y28.0431
G01 X34.4925 Y28.0372
G01 X34.4963 Y28.0310
G01 X34.4996 Y28.0245
G01 X34.5276 Y27.9513
G01 X34.5306 Y27.9419
G01 X34.5327 Y27.9322
G01 X34.5338 Y27.9223
G01 X34.5340 Y27.9149
G01 X34.5334 Y27.9050
G01 X34.5323 Y27.8976
G01 X34.5171 Y27.8257
G01 X34.5153 Y27.8185
G01 X34.5120 Y27.8091
G01 X34.5078 Y27.8001
G01 X34.5028 Y27.7915
G01 X34.4969 Y27.7835
G01 X34.4903 Y27.7761
G01 X34.4403 Y27.7257
G01 X34.4315 Y27.7178
G01 X34.4257 Y27.7135
G01 X34.4197 Y27.7097
G01 X34.3835 Y27.6897
G01 X34.2211 Y27.5614
G01 X34.0818 Y27.4084
G01 X33.9694 Y27.2346
G01 X33.8869 Y27.0448
G01 X33.8365 Y26.8441
G01 X33.8193 Y26.6350
G01 X33.8207 Y26.5791
G01 X33.8480 Y26.3710
G01 X33.9082 Y26.1730
G01 X33.9999 Y25.9875
G01 X34.1207 Y25.8194
G01 X34.2672 Y25.6733
G01 X34.4417 Y25.5489
G01 X34.4513 Y25.5406
G01 X34.4837 Y25.5088
G01 X34.4883 Y25.5031
G01 X34.4925 Y25.4972
G01 X34.4963 Y25.4910
G01 X34.4996 Y25.4845
G01 X34.5276 Y25.4113
G01 X34.5306 Y25.4019
G01 X34.5327 Y25.3922
G01 X34.5338 Y25.3823
G01 X34.5340 Y25.3749
G01 X34.5334 Y25.3650
G01 X34.5323 Y25.3576
G01 X34.5171 Y25.2857
G01 X34.5153 Y25.2785
G01 X34.5120 Y25.2691
G01 X34.5078 Y25.2601
G01 X34.5028 Y25.2515
G01 X34.4969 Y25.2435
G01 X34.4903 Y25.2361
G01 X34.4403 Y25.1857
G01 X34.4315 Y25.1778
G01 X34.4257 Y25.1735
G01 X34.4197 Y25.1697
G01 X34.3835 Y25.1497
G01 X34.2211 Y25.0214
G01 X34.0818 Y24.8684
G01 X33.9694 Y24.6946
G01 X33.8869 Y24.5048
G01 X33.8365 Y24.3041
G01 X33.8193 Y24.0950
G01 X33.8207 Y24.0391
G01 X33.8480 Y23.8310
G01 X33.9082 Y23.6330
G01 X33.9999 Y23.4475
G01 X34.1207 Y23.2794
G01 X34.2673 Y23.1333
G01 X34.4417 Y23.0089
G01 X34.4513 Y23.0006
G01 X34.4837 Y22.9688
G01 X34.4883 Y22.9631
G01 X34.4925 Y22.9572
G01 X34.4963 Y22.9510
G01 X34.4996 Y22.9445
G01 X34.5276 Y22.8713
G01 X34.5306 Y22.8619
G01 X34.5327 Y22.8522
G01 X34.5338 Y22.8423
G01 X34.5340 Y22.8349
G01 X34.5334 Y22.8250
G01 X34.5323 Y22.8176
G01 X34.5171 Y22.7457
G01 X34.5153 Y22.7385
G01 X34.5110 Y22.7268
G01 X34.5067 Y22.7179
G01 X34.5014 Y22.7095
G01 X34.4937 Y22.6997
G01 X34.4403 Y22.6457
G01 X34.4315 Y22.6378
G01 X34.4257 Y22.6335
G01 X34.4197 Y22.6297
G01 X34.3835 Y22.6097
G01 X34.2211 Y22.4814
G01 X34.0818 Y22.3284
G01 X33.9694 Y22.1546
G01 X33.8869 Y21.9648
G01 X33.8365 Y21.7641
G01 X33.8193 Y21.5550
G01 X33.8207 Y21.4991
G01 X33.8480 Y21.2910
G01 X33.9082 Y21.0930
G01 X33.9999 Y20.9075
G01 X34.1207 Y20.7394
G01 X34.2227 Y20.6375
G01 X34.2288 Y20.6302
G01 X34.2504 Y20.6015
G01 X34.2560 Y20.5932
G01 X34.2597 Y20.5866
G01 X34.2628 Y20.5797
G01 X34.2654 Y20.5726
G01 X34.2675 Y20.5653
G01 X34.2838 Y20.4911
G01 X34.2852 Y20.4813
G01 X34.2856 Y20.4714
G01 X34.2853 Y20.4639
G01 X34.2844 Y20.4565
G01 X34.2829 Y20.4492
G01 X34.2810 Y20.4420
G01 X34.2538 Y20.3685
G01 X34.2496 Y20.3594
G01 X34.2432 Y20.3488
G01 X34.2372 Y20.3409
G01 X34.2286 Y20.3320
G01 X34.2210 Y20.3256
G01 X34.1642 Y20.2830
G01 X34.1563 Y20.2776
G01 X34.1501 Y20.2741
G01 X34.1392 Y20.2693
G01 X34.0342 Y20.2299
G01 X33.9405 Y20.1597
G01 X33.8703 Y20.0661
G01 X33.8287 Y19.9549
G01 X33.8238 Y19.9106
G01 X33.8238 Y18.1252
G01 X33.8287 Y18.0809
G01 X33.8703 Y17.9697
G01 X33.9405 Y17.8760
G01 X34.0342 Y17.8059
G01 X34.1453 Y17.7642
G01 X34.1896 Y17.7594
G01 X35.9751 Y17.7594
G01 X36.0193 Y17.7642
G01 X36.1305 Y17.8059
G01 X36.2242 Y17.8760
G01 X36.2944 Y17.9697
G01 X36.3360 Y18.0809
G01 X36.3373 Y18.0926
G01 X36.3389 Y18.1016
G01 X36.3507 Y18.1447
G01 X36.3529 Y18.1518
G01 X36.3557 Y18.1587
G01 X36.3614 Y18.1697
G01 X36.3654 Y18.1759
G01 X36.3699 Y18.1818
G01 X36.4214 Y18.2410
G01 X36.4267 Y18.2462
G01 X36.4344 Y18.2525
G01 X36.4406 Y18.2567
G01 X36.4493 Y18.2615
G01 X36.4561 Y18.2646
G01 X36.4631 Y18.2671
G01 X36.5336 Y18.2878
G01 X36.5452 Y18.2905
G01 X36.5546 Y18.2916
G01 X36.8031 Y18.2919
G01 X36.8192 Y18.2913
G01 X36.8338 Y18.2899
G01 X36.9052 Y18.2919
G01 X36.9737 Y18.2919
G01 X36.9915 Y18.2942
G01 X37.0584 Y18.3109
G01 X37.1288 Y18.3267
G01 X37.1446 Y18.3323
G01 X37.2064 Y18.3630
G01 X37.2717 Y18.3934
G01 X37.2859 Y18.4023
G01 X37.3398 Y18.4456
G01 X37.3965 Y18.4890
G01 X37.4231 Y18.5205
G01 X37.4346 Y18.5328
G01 X38.5115 Y19.6098
G01 X38.5186 Y19.6162
G01 X38.5262 Y19.6219
G01 X38.5732 Y19.6522
G01 X38.5797 Y19.6560
G01 X38.5864 Y19.6593
G01 X38.5957 Y19.6629
G01 X38.6053 Y19.6656
G01 X38.6127 Y19.6670
G01 X38.6202 Y19.6678
G01 X38.6935 Y19.6730
G01 X38.7059 Y19.6728
G01 X38.7182 Y19.6711
G01 X38.7301 Y19.6678
G01 X38.7416 Y19.6631
G01 X38.8084 Y19.6268
G01 X38.8184 Y19.6205
G01 X38.8241 Y19.6162
G01 X38.8294 Y19.6114
G01 X38.8902 Y19.5507
G01 X39.0634 Y19.4294
G01 X39.0992 Y19.4126
G01 X39.1079 Y19.4074
G01 X39.1140 Y19.4030
G01 X39.1720 Y19.3529
G01 X39.1805 Y19.3441
G01 X39.1879 Y19.3344
G01 X39.1940 Y19.3238
G01 X39.1989 Y19.3125
G01 X39.2216 Y19.2375
G01 X39.2242 Y19.2254
G01 X39.2251 Y19.2155
G01 X39.2251 Y19.2056
G01 X39.2236 Y19.1933
G01 X39.2214 Y19.1836
G01 X39.2019 Y19.1153
G01 X39.1996 Y19.1082
G01 X39.1968 Y19.1013
G01 X39.1922 Y19.0925
G01 X39.1882 Y19.0862
G01 X39.1822 Y19.0783
G01 X39.1772 Y19.0728
G01 X39.1718 Y19.0677
G01 X39.1130 Y19.0162
G01 X39.1072 Y19.0121
G01 X39.0990 Y19.0073
G01 X39.0634 Y18.9906
G01 X38.8902 Y18.8693
G01 X38.7407 Y18.7198
G01 X38.6194 Y18.5466
G01 X38.5300 Y18.3549
G01 X38.4789 Y18.1640
G01 X38.4753 Y18.1507
G01 X38.4569 Y17.9400
G01 X38.4753 Y17.7293
G01 X38.5112 Y17.5955
G01 X38.5300 Y17.5251
G01 X38.6194 Y17.3334
G01 X38.7407 Y17.1602
G01 X38.8902 Y17.0107
G01 X39.0634 Y16.8894
G01 X39.0970 Y16.8737
G01 X39.1036 Y16.8701
G01 X39.1100 Y16.8660
G01 X39.1179 Y16.8598
G01 X39.1701 Y16.8145
G01 X39.1789 Y16.8060
G01 X39.1851 Y16.7984
G01 X39.1905 Y16.7902
G01 X39.1951 Y16.7816
G01 X39.1980 Y16.7748
G01 X39.2209 Y16.6999
G01 X39.2233 Y16.6903
G01 X39.2250 Y16.6780
G01 X39.2251 Y16.6656
G01 X39.2240 Y16.6557
G01 X39.2214 Y16.6436
G01 X39.2019 Y16.5753
G01 X39.1996 Y16.5682
G01 X39.1957 Y16.5591
G01 X39.1909 Y16.5504
G01 X39.1853 Y16.5422
G01 X39.1789 Y16.5346
G01 X39.1718 Y16.5277
G01 X39.1185 Y16.4808
G01 X39.1111 Y16.4748
G01 X39.1052 Y16.4708
G01 X39.0969 Y16.4662
G01 X39.0634 Y16.4506
G01 X38.8902 Y16.3293
G01 X38.7407 Y16.1798
G01 X38.6194 Y16.0066
G01 X38.5300 Y15.8149
G01 X38.4753 Y15.6107
G01 X38.4569 Y15.4000
G01 X38.4753 Y15.1893
G01 X38.5204 Y15.0209
G01 X38.5300 Y14.9851
G01 X38.6194 Y14.7934
G01 X38.7407 Y14.6202
G01 X38.8902 Y14.4707
G01 X39.0634 Y14.3494
G01 X39.0970 Y14.3337
G01 X39.1036 Y14.3301
G01 X39.1120 Y14.3245
G01 X39.1179 Y14.3198
G01 X39.1720 Y14.2729
G01 X39.1789 Y14.2660
G01 X39.1865 Y14.2564
G01 X39.1905 Y14.2502
G01 X39.1951 Y14.2416
G01 X39.1980 Y14.2348
G01 X39.2004 Y14.2279
G01 X39.2222 Y14.1551
G01 X39.2245 Y14.1429
G01 X39.2252 Y14.1306
G01 X39.2244 Y14.1182
G01 X39.2220 Y14.1060
G01 X39.2012 Y14.0329
G01 X39.1987 Y14.0259
G01 X39.1946 Y14.0169
G01 X39.1909 Y14.0104
G01 X39.1853 Y14.0022
G01 X39.1806 Y13.9964
G01 X39.1737 Y13.9893
G01 X39.1185 Y13.9408
G01 X39.1111 Y13.9348
G01 X39.1031 Y13.9296
G01 X39.0969 Y13.9262
G01 X39.0634 Y13.9106
G01 X38.8902 Y13.7893
G01 X38.7512 Y13.6503
G01 X38.7452 Y13.6450
G01 X38.7203 Y13.6252
G01 X38.7142 Y13.6210
G01 X38.7078 Y13.6174
G01 X38.7011 Y13.6142
G01 X38.6943 Y13.6116
G01 X38.6215 Y13.5901
G01 X38.6122 Y13.5878
G01 X38.6028 Y13.5865
G01 X38.5933 Y13.5860
G01 X37.0383 Y13.5860
G01 X37.0303 Y13.5866
G01 X36.9987 Y13.5901
G01 X36.9867 Y13.5927
G01 X36.9774 Y13.5959
G01 X36.9663 Y13.6011
G01 X36.9019 Y13.6363
G01 X36.8939 Y13.6414
G01 X36.8864 Y13.6473
G01 X36.8812 Y13.6522
G01 X36.5074 Y14.0260
G01 X36.4964 Y14.0378
G01 X36.4870 Y14.0491
G01 X36.4377 Y14.0958
G01 X36.3867 Y14.1467
G01 X36.3725 Y14.1576
G01 X36.3133 Y14.1931
G01 X36.2525 Y14.2317
G01 X36.2373 Y14.2389
G01 X36.1719 Y14.2610
G01 X36.1042 Y14.2855
G01 X36.0879 Y14.2893
G01 X36.0163 Y14.2972
G01 X35.9484 Y14.3062
G01 X35.9073 Y14.3028
G01 X35.8905 Y14.3022
G01 X26.2369 Y14.3022
G01 X26.2208 Y14.3027
G01 X26.2062 Y14.3041
G01 X26.1348 Y14.3022
G01 X26.0663 Y14.3022
G01 X26.0485 Y14.2998
G01 X25.9816 Y14.2831
G01 X25.9113 Y14.2674
G01 X25.8955 Y14.2617
G01 X25.8309 Y14.2297
G01 X25.7684 Y14.2006
G01 X25.7541 Y14.1917
G01 X25.6979 Y14.1466
G01 X25.6435 Y14.1050
G01 X25.6169 Y14.0735
G01 X25.6055 Y14.0612
G01 X22.8082 Y11.2639
G01 X22.7963 Y11.2529
G01 X22.7851 Y11.2435
G01 X22.7384 Y11.1942
G01 X22.6875 Y11.1432
G01 X22.6766 Y11.1290
G01 X22.6410 Y11.0698
G01 X22.6025 Y11.0090
G01 X22.5953 Y10.9938
G01 X22.5732 Y10.9284
G01 X22.5486 Y10.8607
G01 X22.5448 Y10.8444
G01 X22.5374 Y10.7758
G01 X22.5280 Y10.7049
G01 X22.5314 Y10.6638
G01 X22.5320 Y10.6470
G01 X22.5320 Y9.6083
G01 X22.5315 Y9.5983
G01 X22.5300 Y9.5884
G01 X22.5151 Y9.5241
G01 X22.5127 Y9.5173
G01 X22.5087 Y9.5084
G01 X22.5039 Y9.4999
G01 X22.4998 Y9.4939
G01 X22.4936 Y9.4864
G01 X22.4609 Y9.4502
G01 X22.4551 Y9.4421
G01 X22.4469 Y9.4329
G01 X22.4395 Y9.4264
G01 X22.4279 Y9.4179
G01 X22.2590 Y9.2737
G01 X22.1599 Y9.1577
G01 X22.1514 Y9.1489
G01 X22.1458 Y9.1442
G01 X22.1399 Y9.1398
G01 X22.0705 Y9.0955
G01 X22.0640 Y9.0923
G01 X22.0574 Y9.0895
G01 X22.0458 Y9.0860
G01 X22.0340 Y9.0839
G01 X22.0219 Y9.0833
G01 X21.9510 Y9.0838
G01 X21.9410 Y9.0844
G01 X21.9337 Y9.0854
G01 X21.9240 Y9.0877
G01 X21.9146 Y9.0909
G01 X21.9056 Y9.0951
G01 X21.8970 Y9.1001
G01 X21.8375 Y9.1389
G01 X21.8317 Y9.1430
G01 X21.8244 Y9.1491
G01 X21.8162 Y9.1577
G01 X21.7171 Y9.2737
G01 X21.5485 Y9.4177
G01 X21.3594 Y9.5335
G01 X21.1546 Y9.6184
G01 X20.9390 Y9.6701
G01 X20.7180 Y9.6875
G01 X20.4970 Y9.6701
G01 X20.2814 Y9.6184
G01 X20.0766 Y9.5335
G01 X19.8876 Y9.4177
G01 X19.7190 Y9.2737
G01 X19.6199 Y9.1577
G01 X19.6132 Y9.1506
G01 X19.6077 Y9.1457
G01 X19.5979 Y9.1385
G01 X19.5367 Y9.0992
G01 X19.5262 Y9.0933
G01 X19.5151 Y9.0887
G01 X19.5035 Y9.0855
G01 X19.4940 Y9.0839
G01 X19.4819 Y9.0833
G01 X19.4060 Y9.0840
G01 X19.3937 Y9.0854
G01 X19.3816 Y9.0884
G01 X19.3700 Y9.0929
G01 X19.3591 Y9.0987
G01 X19.2956 Y9.1402
G01 X19.2862 Y9.1475
G01 X19.2777 Y9.1559
G01 X19.1771 Y9.2737
G01 X19.0085 Y9.4177
G01 X18.8194 Y9.5335
G01 X18.6146 Y9.6184
G01 X18.3990 Y9.6701
G01 X18.1780 Y9.6875
G01 X17.9570 Y9.6701
G01 X17.7414 Y9.6184
G01 X17.5366 Y9.5335
G01 X17.3476 Y9.4177
G01 X17.1790 Y9.2737
G01 X17.0799 Y9.1577
G01 X17.0732 Y9.1506
G01 X17.0677 Y9.1457
G01 X17.0579 Y9.1385
G01 X16.9967 Y9.0992
G01 X16.9862 Y9.0933
G01 X16.9751 Y9.0887
G01 X16.9635 Y9.0855
G01 X16.9540 Y9.0839
G01 X16.9419 Y9.0833
G01 X16.8710 Y9.0838
G01 X16.8586 Y9.0847
G01 X16.8488 Y9.0865
G01 X16.8393 Y9.0892
G01 X16.8278 Y9.0939
G01 X16.8191 Y9.0987
G01 X16.7556 Y9.1402
G01 X16.7498 Y9.1445
G01 X16.7444 Y9.1491
G01 X16.7362 Y9.1577
G01 X16.6371 Y9.2737
G01 X16.4685 Y9.4177
G01 X16.2794 Y9.5335
G01 X16.0746 Y9.6184
G01 X15.8590 Y9.6701
G01 X15.6380 Y9.6875
G01 X15.4170 Y9.6701
G01 X15.2014 Y9.6184
G01 X14.9966 Y9.5335
G01 X14.8076 Y9.4177
G01 X14.6390 Y9.2737
G01 X14.5098 Y9.1225
G01 X14.5045 Y9.1168
G01 X14.4988 Y9.1115
G01 X14.4595 Y9.0795
G01 X14.4514 Y9.0739
G01 X14.4428 Y9.0691
G01 X14.4338 Y9.0652
G01 X14.4244 Y9.0621
G01 X14.3753 Y9.0513
G01 X14.0840 Y8.7600
G01 X14.1143 Y8.6956
G01 X14.1491 Y8.5986
G01 X14.1520 Y8.5893
G01 X14.1764 Y8.4917
G01 X14.1777 Y8.4844
G01 X14.1927 Y8.3825
G01 X14.1980 Y8.2747
G01 X14.1927 Y8.1669
G01 X14.1777 Y8.0649
G01 X14.1764 Y8.0577
G01 X14.1520 Y7.9601
G01 X14.1491 Y7.9507
G01 X14.1143 Y7.8537
G01 X14.0840 Y7.7893
G01 X14.3729 Y7.5004
G01 X14.3862 Y7.4995
G01 X14.3982 Y7.4973
G01 X14.4099 Y7.4938
G01 X14.4211 Y7.4888
G01 X14.4295 Y7.4838
G01 X14.4890 Y7.4450
G01 X14.4948 Y7.4409
G01 X14.5021 Y7.4348
G01 X14.5104 Y7.4262
G01 X14.6390 Y7.2756
G01 X14.8172 Y7.1233
G01 X14.8550 Y7.0833
G01 X14.8611 Y7.0754
G01 X14.8675 Y7.0648
G01 X14.8707 Y7.0581
G01 X14.8742 Y7.0488
G01 X14.8949 Y6.9783
G01 X14.8976 Y6.9667
G01 X14.8989 Y6.9549
G01 X14.8990 Y6.4739
G01 X14.8984 Y6.4578
G01 X14.8971 Y6.4433
G01 X14.8990 Y6.3718
G01 X14.8990 Y6.3034
G01 X14.9013 Y6.2856
G01 X14.9180 Y6.2186
G01 X14.9338 Y6.1483
G01 X14.9394 Y6.1325
G01 X14.9701 Y6.0707
G01 X15.0006 Y6.0054
G01 X15.0094 Y5.9911
G01 X15.0527 Y5.9373
G01 X15.0961 Y5.8805
G01 X15.1276 Y5.8539
G01 X15.1400 Y5.8425
G01 X18.1347 Y2.8478
G01 X18.1457 Y2.8360
G01 X18.1550 Y2.8247
G01 X18.2043 Y2.7780
G01 X18.2553 Y2.7271
G01 X18.2695 Y2.7162
G01 X18.3313 Y2.6791
G01 X18.3895 Y2.6421
G01 X18.4047 Y2.6349
G01 X18.4730 Y2.6118
G01 X18.5378 Y2.5883
G01 X18.5542 Y2.5844
G01 X18.6258 Y2.5766
G01 X18.6937 Y2.5676
G01 X18.7347 Y2.5710
G01 X18.7516 Y2.5716
G01 X51.6088 Y2.5716
G01 X51.6249 Y2.5710
G01 X51.6394 Y2.5697
G01 X51.7108 Y2.5716
G01 X51.7793 Y2.5716
G01 X51.7971 Y2.5740
G01 X51.8641 Y2.5907
G01 X51.9344 Y2.6064
G01 X51.9502 Y2.6120
G01 X52.0148 Y2.6440
G01 X52.0773 Y2.6732
G01 X52.0916 Y2.6821
G01 X52.1454 Y2.7254
G01 X52.2021 Y2.7688
G01 X52.2288 Y2.8002
G01 X52.2402 Y2.8126
G01 X58.1420 Y8.7144
G01 X58.1538 Y8.7253
G01 X58.1651 Y8.7347
G01 X58.2117 Y8.7840
G01 X58.2626 Y8.8350
G01 X58.2735 Y8.8492
G01 X58.3107 Y8.9110
G01 X58.3476 Y8.9692
G01 X58.3549 Y8.9844
G01 X58.3779 Y9.0527
G01 X58.4015 Y9.1175
G01 X58.4053 Y9.1339
G01 X58.4131 Y9.2055
G01 X58.4222 Y9.2734
G01 X58.4187 Y9.3144
G01 X58.4181 Y9.3312
G01 X58.4181 Y15.0681
G01 X58.4187 Y15.0842
G01 X58.4200 Y15.0988
G01 X58.4181 Y15.1702
G01 X58.4181 Y15.2387
G01 X58.4158 Y15.2565
G01 X58.3991 Y15.3234
G01 X58.3833 Y15.3938
G01 X58.3777 Y15.4096
G01 X58.3457 Y15.4742
G01 X58.3165 Y15.5367
G01 X58.3077 Y15.5510
G01 X58.2625 Y15.6071
G01 X58.2209 Y15.6615
G01 X58.1895 Y15.6881
G01 X58.1771 Y15.6996
G01 X56.1826 Y17.6941
G01 X56.1743 Y17.7035
G01 X56.1504 Y17.7360
G01 X56.1450 Y17.7440
G01 X56.1415 Y17.7504
G01 X56.1376 Y17.7593
G01 X56.1346 Y17.7685
G01 X56.1189 Y17.8452
G01 X56.1175 Y17.8546
G01 X56.1170 Y17.8617
G01 X56.1171 Y17.8712
G01 X56.1231 Y17.9400
G01 X56.1047 Y18.1507
G01 X56.0500 Y18.3549
G01 X55.9606 Y18.5466
G01 X55.8393 Y18.7198
G01 X55.6898 Y18.8693
G01 X55.5166 Y18.9906
G01 X55.4830 Y19.0063
G01 X55.4742 Y19.0112
G01 X55.4680 Y19.0155
G01 X55.4621 Y19.0202
G01 X55.4045 Y19.0705
G01 X55.3979 Y19.0777
G01 X55.3921 Y19.0856
G01 X55.3871 Y19.0940
G01 X55.3829 Y19.1029
G01 X55.3796 Y19.1121
G01 X55.3591 Y19.1801
G01 X55.3562 Y19.1921
G01 X55.3550 Y19.2020
G01 X55.3549 Y19.2144
G01 X55.3560 Y19.2243
G01 X55.3586 Y19.2364
G01 X55.3796 Y19.3094
G01 X55.3843 Y19.3209
G01 X55.3904 Y19.3317
G01 X55.3978 Y19.3417
G01 X55.4063 Y19.3507
G01 X55.4651 Y19.4023
G01 X55.4728 Y19.4079
G01 X55.4810 Y19.4127
G01 X55.5166 Y19.4294
G01 X55.6898 Y19.5507
G01 X55.8288 Y19.6897
G01 X55.8348 Y19.6950
G01 X55.8617 Y19.7163
G01 X55.8679 Y19.7202
G01 X55.8744 Y19.7237
G01 X55.8811 Y19.7267
G01 X55.8880 Y19.7292
G01 X55.9608 Y19.7506
G01 X55.9701 Y19.7526
G01 X55.9819 Y19.7539
G01 X60.8657 Y19.7540
G01 X60.8764 Y19.7534
G01 X60.9080 Y19.7499
G01 X60.9176 Y19.7479
G01 X60.9270 Y19.7450
G01 X60.9338 Y19.7422
G01 X60.9404 Y19.7389
G01 X61.0027 Y19.7049
G01 X61.0128 Y19.6986
G01 X61.0184 Y19.6942
G01 X61.0255 Y19.6878
G01 X63.0097 Y17.7036
G01 X63.0150 Y17.6975
G01 X63.0348 Y17.6726
G01 X63.0414 Y17.6623
G01 X63.0458 Y17.6535
G01 X63.0499 Y17.6420
G01 X63.0699 Y17.5738
G01 X63.0722 Y17.5646
G01 X63.0733 Y17.5575
G01 X63.0740 Y17.5457
G01 X63.0740 Y17.3799
G01 X63.0736 Y17.3704
G01 X63.0658 Y17.3224
G01 X63.0636 Y17.3126
G01 X63.0614 Y17.3055
G01 X63.0586 Y17.2985
G01 X63.0553 Y17.2917
G01 X63.0502 Y17.2831
G01 X63.0077 Y17.2232
G01 X63.0002 Y17.2139
G01 X62.9952 Y17.2088
G01 X62.9899 Y17.2040
G01 X62.9388 Y17.1636
G01 X62.7995 Y17.0105
G01 X62.7189 Y16.8860
G01 X62.7128 Y16.8779
G01 X62.6871 Y16.8481
G01 X62.6819 Y16.8430
G01 X62.6762 Y16.8384
G01 X62.6703 Y16.8342
G01 X62.6640 Y16.8305
G01 X62.5960 Y16.7970
G01 X62.5892 Y16.7939
G01 X62.5798 Y16.7907
G01 X62.5701 Y16.7884
G01 X62.5603 Y16.7871
G01 X62.5528 Y16.7868
G01 X62.5429 Y16.7872
G01 X62.4699 Y16.7956
G01 X62.4577 Y16.7978
G01 X62.4458 Y16.8015
G01 X62.4390 Y16.8044
G01 X62.4324 Y16.8078
G01 X62.4219 Y16.8145
G01 X62.3631 Y16.8626
G01 X62.3578 Y16.8673
G01 X62.3528 Y16.8724
G01 X62.3453 Y16.8816
G01 X62.2403 Y17.0352
G01 X62.0988 Y17.1832
G01 X61.9335 Y17.3075
G01 X61.7501 Y17.4032
G01 X61.6140 Y17.4479
G01 X61.6140 Y17.1212
G01 X61.6280 Y17.1157
G01 X61.7034 Y17.0800
G01 X61.7121 Y17.0754
G01 X61.7878 Y17.0299
G01 X61.8627 Y16.9744
G01 X61.9282 Y16.9151
G01 X61.9351 Y16.9082
G01 X61.9944 Y16.8427
G01 X62.0499 Y16.7678
G01 X62.0954 Y16.6921
G01 X62.1000 Y16.6834
G01 X62.1377 Y16.6035
G01 X62.1691 Y16.5158
G01 X62.1907 Y16.4301
G01 X62.1926 Y16.4205
G01 X62.2054 Y16.3331
G01 X62.2100 Y16.2400
G01 X62.2058 Y16.1518
G01 X62.2048 Y16.1420
G01 X62.1917 Y16.0547
G01 X62.1691 Y15.9642
G01 X62.1377 Y15.8765
G01 X62.1000 Y15.7966
G01 X62.0954 Y15.7879
G01 X62.0499 Y15.7122
G01 X61.9944 Y15.6373
G01 X61.9351 Y15.5718
G01 X61.9282 Y15.5649
G01 X61.8627 Y15.5056
G01 X61.7878 Y15.4501
G01 X61.7121 Y15.4046
G01 X61.7034 Y15.4000
G01 X61.6280 Y15.3643
G01 X61.6140 Y15.3588
G01 X61.6140 Y15.0285
G01 X61.8063 Y15.1021
G01 X61.9848 Y15.2066
G01 X62.1439 Y15.3389
G01 X62.2780 Y15.4937
G01 X62.3386 Y15.5918
G01 X62.3445 Y15.5993
G01 X62.3724 Y15.6311
G01 X62.3790 Y15.6380
G01 X62.3863 Y15.6442
G01 X62.3941 Y15.6497
G01 X62.4024 Y15.6545
G01 X62.4089 Y15.6575
G01 X62.4789 Y15.6868
G01 X62.4860 Y15.6891
G01 X62.4933 Y15.6909
G01 X62.5006 Y15.6921
G01 X62.5080 Y15.6927
G01 X62.5180 Y15.6927
G01 X62.5279 Y15.6918
G01 X62.6002 Y15.6791
G01 X62.6075 Y15.6776
G01 X62.6194 Y15.6738
G01 X62.6284 Y15.6698
G01 X62.6391 Y15.6634
G01 X62.6470 Y15.6575
G01 X62.6859 Y15.6218
G01 X62.6923 Y15.6173
G01 X62.6998 Y15.6110
G01 X62.7050 Y15.6058
G01 X62.7098 Y15.6002
G01 X62.8383 Y15.4215
G01 X62.9849 Y15.2755
G01 X63.1534 Y15.1553
G01 X63.3392 Y15.0642
G01 X63.5374 Y15.0048
G01 X63.7427 Y14.9785
G01 X63.9495 Y14.9861
G01 X64.0602 Y15.0086
G01 X64.1523 Y15.0273
G01 X64.3456 Y15.1011
G01 X64.5243 Y15.2056
G01 X64.6835 Y15.3378
G01 X64.7066 Y15.3644
G01 X64.7136 Y15.3717
G01 X64.7540 Y15.4047
G01 X64.7619 Y15.4104
G01 X64.7682 Y15.4142
G01 X64.7769 Y15.4185
G01 X64.7837 Y15.4212
G01 X64.7907 Y15.4234
G01 X64.8648 Y15.4398
G01 X64.8770 Y15.4417
G01 X64.8870 Y15.4421
G01 X64.8969 Y15.4415
G01 X64.9042 Y15.4404
G01 X64.9139 Y15.4382
G01 X64.9210 Y15.4358
G01 X64.9876 Y15.4111
G01 X64.9967 Y15.4072
G01 X65.0075 Y15.4011
G01 X65.0174 Y15.3937
G01 X65.0264 Y15.3851
G01 X65.0327 Y15.3774
G01 X65.0754 Y15.3207
G01 X65.0794 Y15.3148
G01 X65.0842 Y15.3066
G01 X65.0890 Y15.2957
G01 X65.1280 Y15.1918
G01 X65.1982 Y15.0982
G01 X65.2918 Y15.0280
G01 X65.4030 Y14.9863
G01 X65.4473 Y14.9815
G01 X67.2327 Y14.9815
G01 X67.2770 Y14.9863
G01 X67.3882 Y15.0280
G01 X67.4818 Y15.0982
G01 X67.5520 Y15.1918
G01 X67.5937 Y15.3030
G01 X67.5985 Y15.3473
G01 X67.5985 Y17.1327
G01 X67.5937 Y17.1770
G01 X67.5520 Y17.2882
G01 X67.4818 Y17.3818
G01 X67.3882 Y17.4520
G01 X67.2770 Y17.4937
G01 X67.2653 Y17.4950
G01 X67.2563 Y17.4966
G01 X67.2131 Y17.5084
G01 X67.2061 Y17.5106
G01 X67.1969 Y17.5144
G01 X67.1903 Y17.5178
G01 X67.1820 Y17.5231
G01 X67.1761 Y17.5276
G01 X67.1168 Y17.5790
G01 X67.1117 Y17.5844
G01 X67.1069 Y17.5901
G01 X67.0999 Y17.6004
G01 X67.0953 Y17.6092
G01 X67.0908 Y17.6207
G01 X67.0701 Y17.6912
G01 X67.0674 Y17.7028
G01 X67.0665 Y17.7099
G01 X67.0660 Y17.7170
G01 X67.0660 Y38.1702
G01 X67.0666 Y38.1863
G01 X67.0679 Y38.2009
G01 X67.0660 Y38.2723
G01 X67.0660 Y38.3408
G01 X67.0637 Y38.3586
G01 X67.0470 Y38.4255
G01 X67.0312 Y38.4959
G01 X67.0256 Y38.5117
G01 X66.9936 Y38.5763
G01 X66.9644 Y38.6388
G01 X66.9556 Y38.6531
G01 X66.9104 Y38.7092
G01 X66.8688 Y38.7636
G01 X66.8374 Y38.7902
G01 X66.8250 Y38.8017
G01 X63.3222 Y42.3045
G01 X63.3150 Y42.3125
G01 X63.2952 Y42.3374
G01 X63.2898 Y42.3456
G01 X63.2842 Y42.3565
G01 X63.2801 Y42.3680
G01 X63.2594 Y42.4384
G01 X63.2570 Y42.4501
G01 X63.2560 Y42.4620
G01 X63.2560 Y43.4393
G01 X63.2565 Y43.4492
G01 X63.2592 Y43.4761
G01 X63.2603 Y43.4833
G01 X63.2620 Y43.4904
G01 X63.2588 Y43.5016
G01 X63.2574 Y43.5086
G01 X63.2565 Y43.5157
G01 X63.2560 Y43.5252
G01 X63.2560 Y44.2157
G01 X63.2566 Y44.2264
G01 X63.2605 Y44.2604
G01 X63.2621 Y44.2676
G01 X63.2642 Y44.2747
G01 X63.2668 Y44.2815
G01 X63.2700 Y44.2882
G01 X63.3063 Y44.3548
G01 X63.3114 Y44.3628
G01 X63.3158 Y44.3684
G01 X63.3222 Y44.3755
G01 X63.5157 Y44.5689
G01 X63.5232 Y44.5754
G01 X63.5335 Y44.5824
G01 X63.5994 Y44.6193
G01 X63.6106 Y44.6241
G01 X63.6199 Y44.6269
G01 X63.6295 Y44.6288
G01 X63.6392 Y44.6297
G01 X63.6489 Y44.6297
G01 X63.7223 Y44.6262
G01 X63.7346 Y44.6245
G01 X63.7466 Y44.6213
G01 X63.7581 Y44.6167
G01 X63.7689 Y44.6107
G01 X63.8329 Y44.5652
G01 X63.8423 Y44.5571
G01 X63.8507 Y44.5480
G01 X63.8565 Y44.5400
G01 X63.8626 Y44.5292
G01 X63.8657 Y44.5224
G01 X63.8929 Y44.4541
G01 X63.8965 Y44.4422
G01 X63.8983 Y44.4325
G01 X63.8990 Y44.4251
G01 X63.8991 Y44.4176
G01 X63.8982 Y44.4052
G01 X63.8839 Y44.3306
G01 X63.8816 Y44.3214
G01 X63.8776 Y44.3102
G01 X63.8724 Y44.2995
G01 X63.7810 Y44.0414
G01 X63.7254 Y43.7732
G01 X63.7075 Y43.5098
G01 X63.7066 Y43.5017
G01 X63.7029 Y43.4806
G01 X63.7053 Y43.4712
G01 X63.7071 Y43.4594
G01 X63.7316 Y43.1851
G01 X63.7927 Y42.9181
G01 X63.8895 Y42.6619
G01 X64.0202 Y42.4213
G01 X64.1823 Y42.2006
G01 X64.3729 Y42.0039
G01 X64.5884 Y41.8349
G01 X64.8249 Y41.6968
G01 X65.0779 Y41.5920
G01 X65.3428 Y41.5225
G01 X65.6146 Y41.4896
G01 X65.8885 Y41.4939
G01 X66.1592 Y41.5353
G01 X66.4217 Y41.6131
G01 X66.6713 Y41.7258
G01 X66.9033 Y41.8713
G01 X67.1134 Y42.0470
G01 X67.2977 Y42.2495
G01 X67.4528 Y42.4752
G01 X67.5759 Y42.7199
G01 X67.6646 Y42.9789
G01 X67.7173 Y43.2477
G01 X67.7331 Y43.5211
G01 X67.7116 Y43.7941
G01 X67.6533 Y44.0617
G01 X67.5591 Y44.3188
G01 X67.4310 Y44.5609
G01 X67.2712 Y44.7833
G01 X67.0827 Y44.9819
G01 X66.8690 Y45.1531
G01 X66.6340 Y45.2938
G01 X66.3821 Y45.4012
G01 X66.1179 Y45.4735
G01 X65.8464 Y45.5092
G01 X65.5726 Y45.5078
G01 X65.3014 Y45.4692
G01 X65.0381 Y45.3942
G01 X64.8959 Y45.3318
G01 X64.8845 Y45.3276
G01 X64.8727 Y45.3248
G01 X64.8107 Y45.3141
G01 X64.8012 Y45.3132
G01 X64.7916 Y45.3131
G01 X64.7796 Y45.3144
G01 X64.7726 Y45.3158
G01 X64.7656 Y45.3178
G01 X64.6900 Y45.3460
G01 X64.6789 Y45.3516
G01 X64.6706 Y45.3570
G01 X64.6610 Y45.3650
G01 X64.6542 Y45.3721
G01 X64.6495 Y45.3779
G01 X64.6055 Y45.4367
G01 X64.5989 Y45.4473
G01 X64.5937 Y45.4586
G01 X64.5900 Y45.4704
G01 X64.5877 Y45.4826
G01 X64.5822 Y45.5584
G01 X64.5821 Y45.5708
G01 X64.5835 Y45.5831
G01 X64.5864 Y45.5951
G01 X64.5908 Y45.6067
G01 X64.5941 Y45.6134
G01 X64.6293 Y45.6778
G01 X64.6359 Y45.6877
G01 X64.6436 Y45.6968
G01 X66.7899 Y47.8432
G01 X66.8017 Y47.8541
G01 X66.8130 Y47.8635
G01 X66.8596 Y47.9128
G01 X66.9105 Y47.9638
G01 X66.9214 Y47.9780
G01 X66.9586 Y48.0397
G01 X66.9955 Y48.0980
G01 X67.0028 Y48.1132
G01 X67.0258 Y48.1815
G01 X67.0494 Y48.2463
G01 X67.0523 Y48.2592
G01 X67.0565 Y48.2747
G01 X67.0586 Y48.2816
G01 X67.0613 Y48.2883
G01 X67.0656 Y48.2969
G01 X67.0707 Y48.3051
G01 X67.1125 Y48.3655
G01 X67.1205 Y48.3750
G01 X67.1276 Y48.3819
G01 X67.1334 Y48.3866
G01 X67.1416 Y48.3921
G01 X67.1482 Y48.3957
G01 X67.1549 Y48.3989
G01 X67.2227 Y48.4270
G01 X67.2317 Y48.4300
G01 X67.2410 Y48.4321
G01 X67.2770 Y48.4363
G01 X67.3882 Y48.4780
G01 X67.4818 Y48.5482
G01 X67.5520 Y48.6418
G01 X67.5937 Y48.7530
G01 X67.5985 Y48.7973
G01 X67.5985 Y50.5827
G01 X67.5937 Y50.6270
G01 X67.5520 Y50.7382
G01 X67.4818 Y50.8318
G01 X67.3882 Y50.9020
G01 X67.2770 Y50.9437
G01 X67.2653 Y50.9450
G01 X67.2563 Y50.9466
G01 X67.2131 Y50.9584
G01 X67.2014 Y50.9624
G01 X67.1947 Y50.9655
G01 X67.1882 Y50.9690
G01 X67.1820 Y50.9731
G01 X67.1742 Y50.9792
G01 X67.1205 Y51.0257
G01 X67.1133 Y51.0326
G01 X67.1069 Y51.0401
G01 X67.0999 Y51.0504
G01 X67.0953 Y51.0592
G01 X67.0908 Y51.0707
G01 X67.0694 Y51.1435
G01 X67.0670 Y51.1552
G01 X67.0660 Y51.1670
G01 X67.0660 Y52.1402
G01 X67.0666 Y52.1563
G01 X67.0679 Y52.1709
G01 X67.0660 Y52.2423
G01 X67.0660 Y52.3108
G01 X67.0637 Y52.3286
G01 X67.0470 Y52.3955
G01 X67.0312 Y52.4659
G01 X67.0256 Y52.4817
G01 X66.9936 Y52.5463
G01 X66.9644 Y52.6088
G01 X66.9556 Y52.6231
G01 X66.9104 Y52.6792
G01 X66.8688 Y52.7336
G01 X66.8374 Y52.7602
G01 X66.8250 Y52.7717
G01 X65.6468 Y53.9499
G01 X65.6359 Y53.9617
G01 X65.6265 Y53.9730
G01 X65.5772 Y54.0196
G01 X65.5262 Y54.0705
G01 X65.5120 Y54.0814
G01 X65.4528 Y54.1170
G01 X65.3920 Y54.1555
G01 X65.3768 Y54.1628
G01 X65.3114 Y54.1848
G01 X65.2437 Y54.2094
G01 X65.2273 Y54.2132
G01 X65.1558 Y54.2210
G01 X65.0878 Y54.2301
G01 X65.0468 Y54.2266
G01 X65.0300 Y54.2260
G01 X47.3798 Y54.2260
G01 X47.3637 Y54.2266
G01 X47.3491 Y54.2279
G01 X47.2777 Y54.2260
G01 X47.2092 Y54.2260
G01 X47.1914 Y54.2237
G01 X47.1245 Y54.2070
G01 X47.0541 Y54.1912
G01 X47.0383 Y54.1856
G01 X46.9737 Y54.1536
G01 X46.9112 Y54.1244
G01 X46.8969 Y54.1156
G01 X46.8408 Y54.0704
G01 X46.7864 Y54.0289
G01 X46.7598 Y53.9974
G01 X46.7483 Y53.9850
G01 X43.6381 Y50.8749
G01 X43.6328 Y50.8701
G01 X43.6251 Y50.8644
G01 X43.5760 Y50.8328
G01 X43.5649 Y50.8270
G01 X43.5532 Y50.8226
G01 X43.5435 Y50.8202
G01 X43.5337 Y50.8187
G01 X43.4604 Y50.8135
G01 X43.4529 Y50.8132
G01 X43.4455 Y50.8135
G01 X43.4356 Y50.8148
G01 X43.4259 Y50.8170
G01 X43.4165 Y50.8202
G01 X43.4075 Y50.8243
G01 X43.3389 Y50.8618
G01 X43.3291 Y50.8686
G01 X43.3202 Y50.8765
G01 X39.2766 Y54.9202
G01 X39.2656 Y54.9320
G01 X39.2562 Y54.9432
G01 X39.2069 Y54.9899
G01 X39.1559 Y55.0408
G01 X39.1417 Y55.0517
G01 X39.0825 Y55.0873
G01 X39.0217 Y55.1258
G01 X39.0065 Y55.1331
G01 X38.9411 Y55.1551
G01 X38.8734 Y55.1797
G01 X38.8570 Y55.1835
G01 X38.7855 Y55.1913
G01 X38.7176 Y55.2003
G01 X38.6765 Y55.1969
G01 X38.6597 Y55.1963
G01 X36.4468 Y55.1963
G01 X36.4331 Y55.1972
G01 X36.3887 Y55.2044
G01 X36.3791 Y55.2067
G01 X36.3698 Y55.2099
G01 X36.3608 Y55.2141
G01 X36.3522 Y55.2191
G01 X36.2878 Y55.2638
G01 X36.2821 Y55.2686
G01 X36.2750 Y55.2756
G01 X36.2702 Y55.2812
G01 X36.2658 Y55.2873
G01 X36.2619 Y55.2936
G01 X36.2574 Y55.3025
G01 X36.2274 Y55.3747
G01 X36.2253 Y55.3815
G01 X36.2236 Y55.3885
G01 X36.2224 Y55.3955
G01 X36.2211 Y55.4073
G01 X36.1794 Y55.5185
G01 X36.1092 Y55.6121
G01 X36.0156 Y55.6823
G01 X35.9044 Y55.7240
G01 X35.8601 Y55.7288
G01 X34.0747 Y55.7288
G01 X34.0304 Y55.7240
G01 X33.9192 Y55.6823
G01 X33.8256 Y55.6121
G01 X33.7554 Y55.5185
G01 X33.7158 Y55.4129
G01 X33.7117 Y55.4036
G01 X33.6867 Y55.3593
G01 X33.6824 Y55.3533
G01 X33.6777 Y55.3477
G01 X33.6727 Y55.3424
G01 X33.6672 Y55.3376
G01 X33.6016 Y55.2904
G01 X33.5909 Y55.2841
G01 X33.5795 Y55.2792
G01 X33.5676 Y55.2757
G01 X33.5554 Y55.2737
G01 X33.4745 Y55.2698
G01 X33.4646 Y55.2703
G01 X33.4548 Y55.2718
G01 X33.4428 Y55.2750
G01 X33.4336 Y55.2786
G01 X33.4247 Y55.2831
G01 X33.3632 Y55.3186
G01 X33.3552 Y55.3237
G01 X33.3495 Y55.3280
G01 X33.3425 Y55.3344
G01 X33.2658 Y55.4146
G01 X33.1003 Y55.5389
G01 X32.9167 Y55.6344
G01 X32.7200 Y55.6987
G01 X32.5155 Y55.7300
G01 X32.3085 Y55.7275
G01 X32.1048 Y55.6912
G01 X31.9097 Y55.6221
G01 X31.7285 Y55.5221
G01 X31.5661 Y55.3938
G01 X31.4518 Y55.2683
G01 X31.4442 Y55.2611
G01 X31.4191 Y55.2399
G01 X31.4114 Y55.2340
G01 X31.4052 Y55.2300
G01 X31.3965 Y55.2255
G01 X31.3897 Y55.2227
G01 X31.3828 Y55.2203
G01 X31.3100 Y55.1991
G01 X31.2983 Y55.1970
G01 X31.2865 Y55.1963
G01 X31.0287 Y55.1963
G01 X31.0193 Y55.1970
G01 X30.9847 Y55.2012
G01 X30.9724 Y55.2041
G01 X30.9629 Y55.2075
G01 X30.9516 Y55.2131
G01 X30.8901 Y55.2486
G01 X30.8821 Y55.2537
G01 X30.8764 Y55.2580
G01 X30.8677 Y55.2661
G01 X30.7258 Y55.4146
G01 X30.5603 Y55.5389
G01 X30.3767 Y55.6344
G01 X30.1800 Y55.6987
G01 X29.9755 Y55.7300
G01 X29.7685 Y55.7275
G01 X29.5648 Y55.6912
G01 X29.3697 Y55.6221
G01 X29.1885 Y55.5221
G01 X29.0261 Y55.3938
G01 X28.9118 Y55.2683
G01 X28.9042 Y55.2611
G01 X28.8791 Y55.2399
G01 X28.8714 Y55.2340
G01 X28.8652 Y55.2300
G01 X28.8587 Y55.2265
G01 X28.8520 Y55.2236
G01 X28.8451 Y55.2211
G01 X28.7723 Y55.1997
G01 X28.7607 Y55.1973
G01 X28.7488 Y55.1963
G01 X28.4887 Y55.1963
G01 X28.4793 Y55.1970
G01 X28.4447 Y55.2012
G01 X28.4348 Y55.2034
G01 X28.4229 Y55.2075
G01 X28.4116 Y55.2131
G01 X28.3501 Y55.2486
G01 X28.3421 Y55.2537
G01 X28.3364 Y55.2580
G01 X28.3277 Y55.2661
G01 X28.1858 Y55.4146
G01 X28.0203 Y55.5389
G01 X27.8367 Y55.6344
G01 X27.6400 Y55.6987
G01 X27.4355 Y55.7300
G01 X27.2285 Y55.7275
G01 X27.0248 Y55.6912
G01 X26.8297 Y55.6221
G01 X26.6485 Y55.5221
G01 X26.4861 Y55.3938
G01 X26.3718 Y55.2683
G01 X26.3642 Y55.2611
G01 X26.3391 Y55.2399
G01 X26.3314 Y55.2340
G01 X26.3252 Y55.2300
G01 X26.3187 Y55.2265
G01 X26.3120 Y55.2236
G01 X26.3051 Y55.2211
G01 X26.2323 Y55.1997
G01 X26.2207 Y55.1973
G01 X26.2088 Y55.1963
G01 X25.9463 Y55.1964
G01 X25.9097 Y55.2005
G01 X25.9022 Y55.2017
G01 X25.8900 Y55.2049
G01 X25.8806 Y55.2086
G01 X25.8716 Y55.2131
G01 X25.8101 Y55.2486
G01 X25.8021 Y55.2537
G01 X25.7964 Y55.2580
G01 X25.7877 Y55.2661
G01 X25.6458 Y55.4146
G01 X25.4803 Y55.5389
G01 X25.2967 Y55.6344
G01 X25.1000 Y55.6987
G01 X24.8955 Y55.7300
G01 X24.6885 Y55.7275
G01 X24.4848 Y55.6912
G01 X24.2897 Y55.6221
G01 X24.1085 Y55.5221
G01 X23.9461 Y55.3938
G01 X23.8069 Y55.2408
G01 X23.6945 Y55.0670
G01 X23.6119 Y54.8772
G01 X23.5615 Y54.6765
G01 X23.5443 Y54.4674
G01 X23.5457 Y54.4115
G01 X23.5731 Y54.2034
G01 X23.6332 Y54.0054
G01 X23.7249 Y53.8199
G01 X23.8457 Y53.6518
G01 X23.9923 Y53.5057
G01 X24.1608 Y53.3856
G01 X24.3466 Y53.2945
G01 X24.5448 Y53.2351
G01 X24.7501 Y53.2088
G01 X24.9569 Y53.2163
G01 X25.1597 Y53.2576
G01 X25.3530 Y53.3314
G01 X25.5317 Y53.4358
G01 X25.6909 Y53.5680
G01 X25.7792 Y53.6698
G01 X25.7861 Y53.6764
G01 X25.8191 Y53.7046
G01 X25.8275 Y53.7102
G01 X25.8341 Y53.7138
G01 X25.8410 Y53.7169
G01 X25.8481 Y53.7195
G01 X25.9210 Y53.7409
G01 X25.9326 Y53.7433
G01 X25.9445 Y53.7443
G01 X26.2081 Y53.7442
G01 X26.2198 Y53.7429
G01 X26.2684 Y53.7337
G01 X26.2779 Y53.7314
G01 X26.2870 Y53.7282
G01 X26.2980 Y53.7230
G01 X26.3083 Y53.7165
G01 X26.3635 Y53.6745
G01 X26.3710 Y53.6682
G01 X26.3778 Y53.6612
G01 X26.3856 Y53.6520
G01 X26.5323 Y53.5057
G01 X26.7008 Y53.3856
G01 X26.8866 Y53.2945
G01 X27.0848 Y53.2351
G01 X27.2901 Y53.2088
G01 X27.4969 Y53.2163
G01 X27.5954 Y53.2364
G01 X27.6997 Y53.2576
G01 X27.8930 Y53.3314
G01 X28.0717 Y53.4358
G01 X28.2309 Y53.5680
G01 X28.3192 Y53.6698
G01 X28.3261 Y53.6764
G01 X28.3532 Y53.6999
G01 X28.3612 Y53.7061
G01 X28.3675 Y53.7102
G01 X28.3741 Y53.7138
G01 X28.3810 Y53.7169
G01 X28.3881 Y53.7195
G01 X28.4610 Y53.7409
G01 X28.4726 Y53.7433
G01 X28.4821 Y53.7442
G01 X28.7481 Y53.7442
G01 X28.7598 Y53.7429
G01 X28.8084 Y53.7337
G01 X28.8179 Y53.7314
G01 X28.8270 Y53.7282
G01 X28.8380 Y53.7230
G01 X28.8483 Y53.7165
G01 X28.9035 Y53.6745
G01 X28.9110 Y53.6682
G01 X28.9178 Y53.6612
G01 X28.9256 Y53.6520
G01 X29.0723 Y53.5057
G01 X29.2408 Y53.3856
G01 X29.4266 Y53.2945
G01 X29.6248 Y53.2351
G01 X29.8301 Y53.2088
G01 X30.0369 Y53.2163
G01 X30.1354 Y53.2364
G01 X30.2397 Y53.2576
G01 X30.4330 Y53.3314
G01 X30.6117 Y53.4358
G01 X30.7709 Y53.5680
G01 X30.8592 Y53.6698
G01 X30.8661 Y53.6764
G01 X30.8932 Y53.6999
G01 X30.9012 Y53.7061
G01 X30.9075 Y53.7102
G01 X30.9141 Y53.7138
G01 X30.9210 Y53.7169
G01 X30.9281 Y53.7195
G01 X31.0010 Y53.7409
G01 X31.0126 Y53.7433
G01 X31.0221 Y53.7442
G01 X31.2881 Y53.7442
G01 X31.2998 Y53.7429
G01 X31.3484 Y53.7337
G01 X31.3579 Y53.7314
G01 X31.3670 Y53.7282
G01 X31.3780 Y53.7230
G01 X31.3883 Y53.7165
G01 X31.4435 Y53.6745
G01 X31.4510 Y53.6682
G01 X31.4578 Y53.6612
G01 X31.4656 Y53.6520
G01 X31.6123 Y53.5057
G01 X31.7808 Y53.3856
G01 X31.9666 Y53.2945
G01 X32.1648 Y53.2351
G01 X32.3701 Y53.2088
G01 X32.5769 Y53.2163
G01 X32.6754 Y53.2364
G01 X32.7797 Y53.2576
G01 X32.9730 Y53.3314
G01 X33.1517 Y53.4358
G01 X33.3109 Y53.5680
G01 X33.3340 Y53.5946
G01 X33.3410 Y53.6020
G01 X33.3814 Y53.6350
G01 X33.3913 Y53.6420
G01 X33.3977 Y53.6457
G01 X33.4043 Y53.6488
G01 X33.4111 Y53.6515
G01 X33.4181 Y53.6537
G01 X33.4922 Y53.6700
G01 X33.4995 Y53.6714
G01 X33.5069 Y53.6721
G01 X33.5168 Y53.6723
G01 X33.5267 Y53.6715
G01 X33.5365 Y53.6697
G01 X33.5460 Y53.6670
G01 X33.6195 Y53.6396
G01 X33.6263 Y53.6364
G01 X33.6328 Y53.6327
G01 X33.6409 Y53.6271
G01 X33.6467 Y53.6223
G01 X33.6537 Y53.6154
G01 X33.6586 Y53.6097
G01 X33.7027 Y53.5510
G01 X33.7081 Y53.5431
G01 X33.7116 Y53.5369
G01 X33.7156 Y53.5282
G01 X33.7554 Y53.4221
G01 X33.8256 Y53.3285
G01 X33.9192 Y53.2583
G01 X34.0304 Y53.2166
G01 X34.0747 Y53.2118
G01 X35.8601 Y53.2118
G01 X35.9044 Y53.2166
G01 X36.0156 Y53.2583
G01 X36.1092 Y53.3285
G01 X36.1794 Y53.4221
G01 X36.2211 Y53.5333
G01 X36.2224 Y53.5450
G01 X36.2240 Y53.5540
G01 X36.2357 Y53.5971
G01 X36.2380 Y53.6042
G01 X36.2407 Y53.6111
G01 X36.2440 Y53.6178
G01 X36.2477 Y53.6242
G01 X36.2534 Y53.6323
G01 X36.3064 Y53.6934
G01 X36.3155 Y53.7019
G01 X36.3256 Y53.7091
G01 X36.3365 Y53.7150
G01 X36.3481 Y53.7195
G01 X36.4186 Y53.7402
G01 X36.4278 Y53.7425
G01 X36.4373 Y53.7438
G01 X36.4468 Y53.7443
G01 X38.3081 Y53.7442
G01 X38.3161 Y53.7437
G01 X38.3477 Y53.7402
G01 X38.3573 Y53.7382
G01 X38.3690 Y53.7344
G01 X38.3801 Y53.7292
G01 X38.4424 Y53.6951
G01 X38.4525 Y53.6888
G01 X38.4582 Y53.6845
G01 X38.4652 Y53.6781
G01 X42.6878 Y49.4555
G01 X42.6950 Y49.4475
G01 X42.7163 Y49.4206
G01 X42.7226 Y49.4101
G01 X42.7276 Y49.3989
G01 X42.7506 Y49.3216
G01 X42.7522 Y49.3146
G01 X42.7533 Y49.3075
G01 X42.7540 Y49.2957
G01 X42.7540 Y42.4643
G01 X42.7534 Y42.4536
G01 X42.7499 Y42.4220
G01 X42.7485 Y42.4148
G01 X42.7458 Y42.4053
G01 X42.7432 Y42.3985
G01 X42.7400 Y42.3918
G01 X42.7037 Y42.3252
G01 X42.6971 Y42.3153
G01 X42.6895 Y42.3062
G01 X41.9755 Y41.5922
G01 X41.9675 Y41.5850
G01 X41.9426 Y41.5652
G01 X41.9323 Y41.5586
G01 X41.9212 Y41.5533
G01 X41.9120 Y41.5501
G01 X41.8415 Y41.5294
G01 X41.8299 Y41.5270
G01 X41.8180 Y41.5260
G01 X40.7440 Y41.5260
G01 X40.7360 Y41.5266
G01 X40.7044 Y41.5301
G01 X40.6924 Y41.5327
G01 X40.6831 Y41.5359
G01 X40.6720 Y41.5411
G01 X40.6097 Y41.5751
G01 X40.6035 Y41.5788
G01 X40.5977 Y41.5829
G01 X40.5921 Y41.5873
G01 X40.5869 Y41.5922
G01 X40.4498 Y41.7293
G01 X40.2766 Y41.8506
G01 X40.2430 Y41.8663
G01 X40.2364 Y41.8699
G01 X40.2300 Y41.8740
G01 X40.2221 Y41.8802
G01 X40.1699 Y41.9255
G01 X40.1628 Y41.9322
G01 X40.1549 Y41.9416
G01 X40.1483 Y41.9519
G01 X40.1429 Y41.9629
G01 X40.1396 Y41.9721
G01 X40.1191 Y42.0401
G01 X40.1172 Y42.0473
G01 X40.1158 Y42.0546
G01 X40.1149 Y42.0645
G01 X40.1149 Y42.0744
G01 X40.1156 Y42.0818
G01 X40.1169 Y42.0892
G01 X40.1186 Y42.0964
G01 X40.1381 Y42.1647
G01 X40.1404 Y42.1718
G01 X40.1443 Y42.1809
G01 X40.1491 Y42.1896
G01 X40.1547 Y42.1978
G01 X40.1611 Y42.2054
G01 X40.1682 Y42.2123
G01 X40.2215 Y42.2592
G01 X40.2289 Y42.2652
G01 X40.2369 Y42.2704
G01 X40.2431 Y42.2738
G01 X40.2766 Y42.2894
G01 X40.4498 Y42.4107
G01 X40.5993 Y42.5602
G01 X40.7206 Y42.7334
G01 X40.8100 Y42.9251
G01 X40.8647 Y43.1293
G01 X40.8831 Y43.3400
G01 X40.8647 Y43.5507
G01 X40.8100 Y43.7549
G01 X40.7206 Y43.9466
G01 X40.5993 Y44.1198
G01 X40.4498 Y44.2693
G01 X40.2766 Y44.3906
G01 X40.2424 Y44.4065
G01 X40.2358 Y44.4102
G01 X40.2294 Y44.4143
G01 X40.2215 Y44.4205
G01 X40.1639 Y44.4708
G01 X40.1573 Y44.4780
G01 X40.1502 Y44.4880
G01 X40.1454 Y44.4965
G01 X40.1406 Y44.5077
G01 X40.1172 Y44.5851
G01 X40.1156 Y44.5924
G01 X40.1147 Y44.5998
G01 X40.1142 Y44.6072
G01 X40.1144 Y44.6147
G01 X40.1154 Y44.6246
G01 X40.1174 Y44.6343
G01 X40.1375 Y44.7050
G01 X40.1398 Y44.7120
G01 X40.1437 Y44.7212
G01 X40.1485 Y44.7299
G01 X40.1541 Y44.7381
G01 X40.1622 Y44.7475
G01 X40.1676 Y44.7526
G01 X40.2209 Y44.7995
G01 X40.2283 Y44.8055
G01 X40.2342 Y44.8094
G01 X40.2404 Y44.8130
G01 X40.2772 Y44.8305
G01 X40.4485 Y44.9504
G01 X40.5996 Y45.1015
G01 X40.7206 Y45.2747
G01 X40.8090 Y45.4643
G01 X40.8258 Y45.5260
G01 X40.4971 Y45.5260
G01 X40.4637 Y45.4557
G01 X40.4209 Y45.3841
G01 X40.4155 Y45.3760
G01 X40.3657 Y45.3090
G01 X40.3098 Y45.2472
G01 X40.3028 Y45.2402
G01 X40.2410 Y45.1843
G01 X40.1700 Y45.1317
G01 X40.0985 Y45.0887
G01 X40.0899 Y45.0841
G01 X40.0144 Y45.0485
G01 X39.9313 Y45.0188
G01 X39.8504 Y44.9984
G01 X39.8407 Y44.9965
G01 X39.7582 Y44.9843
G01 X39.6700 Y44.9800
G01 X39.5818 Y44.9843
G01 X39.4993 Y44.9965
G01 X39.4896 Y44.9984
G01 X39.4087 Y45.0188
G01 X39.3256 Y45.0485
G01 X39.2501 Y45.0841
G01 X39.2415 Y45.0887
G01 X39.1700 Y45.1317
G01 X39.0990 Y45.1843
G01 X39.0372 Y45.2402
G01 X39.0302 Y45.2472
G01 X38.9743 Y45.3090
G01 X38.9245 Y45.3760
G01 X38.9191 Y45.3841
G01 X38.8763 Y45.4557
G01 X38.8429 Y45.5260
G01 X38.5142 Y45.5260
G01 X38.5310 Y45.4643
G01 X38.6194 Y45.2747
G01 X38.7404 Y45.1015
G01 X38.8915 Y44.9504
G01 X39.0628 Y44.8305
G01 X39.0976 Y44.8140
G01 X39.1042 Y44.8104
G01 X39.1106 Y44.8063
G01 X39.1185 Y44.8000
G01 X39.1744 Y44.7515
G01 X39.1811 Y44.7444
G01 X39.1885 Y44.7347
G01 X39.1935 Y44.7262
G01 X39.1977 Y44.7174
G01 X39.2010 Y44.7082
G01 X39.2215 Y44.6402
G01 X39.2239 Y44.6306
G01 X39.2255 Y44.6183
G01 X39.2256 Y44.6059
G01 X39.2246 Y44.5960
G01 X39.2220 Y44.5839
G01 X39.2025 Y44.5156
G01 X39.2002 Y44.5085
G01 X39.1963 Y44.4994
G01 X39.1915 Y44.4907
G01 X39.1874 Y44.4845
G01 X39.1812 Y44.4767
G01 X39.1724 Y44.4679
G01 X39.1191 Y44.4210
G01 X39.1117 Y44.4151
G01 X39.1058 Y44.4111
G01 X39.0975 Y44.4065
G01 X39.0634 Y44.3906
G01 X38.8902 Y44.2693
G01 X38.7407 Y44.1198
G01 X38.6194 Y43.9466
G01 X38.5300 Y43.7549
G01 X38.4753 Y43.5507
G01 X38.4569 Y43.3400
G01 X38.4753 Y43.1293
G01 X38.5156 Y42.9789
G01 X38.5300 Y42.9251
G01 X38.6194 Y42.7334
G01 X38.7407 Y42.5602
G01 X38.8902 Y42.4107
G01 X39.0634 Y42.2894
G01 X39.0970 Y42.2737
G01 X39.1036 Y42.2701
G01 X39.1120 Y42.2645
G01 X39.1179 Y42.2598
G01 X39.1720 Y42.2129
G01 X39.1805 Y42.2041
G01 X39.1865 Y42.1964
G01 X39.1905 Y42.1902
G01 X39.1940 Y42.1838
G01 X39.1989 Y42.1725
G01 X39.2209 Y42.0999
G01 X39.2228 Y42.0927
G01 X39.2242 Y42.0854
G01 X39.2250 Y42.0780
G01 X39.2252 Y42.0681
G01 X39.2240 Y42.0557
G01 X39.2220 Y42.0460
G01 X39.2019 Y41.9753
G01 X39.1996 Y41.9682
G01 X39.1957 Y41.9591
G01 X39.1909 Y41.9504
G01 X39.1853 Y41.9422
G01 X39.1772 Y41.9328
G01 X39.1718 Y41.9277
G01 X39.1185 Y41.8808
G01 X39.1111 Y41.8748
G01 X39.1031 Y41.8696
G01 X39.0969 Y41.8662
G01 X39.0634 Y41.8506
G01 X38.8902 Y41.7293
G01 X38.7512 Y41.5903
G01 X38.7452 Y41.5850
G01 X38.7183 Y41.5637
G01 X38.7121 Y41.5598
G01 X38.7056 Y41.5563
G01 X38.6989 Y41.5533
G01 X38.6920 Y41.5508
G01 X38.6192 Y41.5294
G01 X38.6122 Y41.5278
G01 X38.6028 Y41.5265
G01 X38.5933 Y41.5260
G01 X35.2412 Y41.5260
G01 X35.2251 Y41.5266
G01 X35.2105 Y41.5279
G01 X35.1391 Y41.5260
G01 X35.0706 Y41.5260
G01 X35.0528 Y41.5237
G01 X34.9859 Y41.5070
G01 X34.9156 Y41.4912
G01 X34.8997 Y41.4856
G01 X34.8352 Y41.4536
G01 X34.7727 Y41.4244
G01 X34.7584 Y41.4156
G01 X34.7022 Y41.3704
G01 X34.6478 Y41.3289
G01 X34.6212 Y41.2974
G01 X34.6098 Y41.2850
G01 X31.9105 Y38.5858
G01 X31.9033 Y38.5796
G01 X31.8975 Y38.5754
G01 X31.8483 Y38.5438
G01 X31.8373 Y38.5380
G01 X31.8280 Y38.5343
G01 X31.8184 Y38.5317
G01 X31.8060 Y38.5297
G01 X31.7327 Y38.5244
G01 X31.7253 Y38.5242
G01 X31.7129 Y38.5250
G01 X31.7031 Y38.5267
G01 X31.6912 Y38.5302
G01 X31.6821 Y38.5341
G01 X31.6112 Y38.5728
G01 X31.6015 Y38.5796
G01 X31.5926 Y38.5875
G01 X27.5419 Y42.6381
G01 X21.1846 Y36.2808
G01 X21.1750 Y36.2724
G01 X21.1398 Y36.2466
G01 X21.1294 Y36.2403
G01 X21.1183 Y36.2353
G01 X21.1114 Y36.2329
G01 X21.1043 Y36.2311
G01 X21.0298 Y36.2166
G01 X21.0175 Y36.2152
G01 X21.0075 Y36.2153
G01 X20.9977 Y36.2164
G01 X20.9903 Y36.2178
G01 X20.9832 Y36.2197
G01 X20.9761 Y36.2222
G01 X20.9056 Y36.2504
G01 X20.8946 Y36.2563
G01 X20.8845 Y36.2634
G01 X20.8753 Y36.2718
G01 X20.8673 Y36.2812
G01 X20.8230 Y36.3430
G01 X20.8191 Y36.3493
G01 X20.8146 Y36.3581
G01 X20.8110 Y36.3674
G01 X20.8083 Y36.3769
G01 X20.8066 Y36.3867
G01 X20.8059 Y36.3941
G01 X20.8023 Y36.4674
G01 X20.8023 Y36.4745
G01 X20.8029 Y36.4817
G01 X20.8050 Y36.4934
G01 X20.8435 Y36.6536
G01 X20.8609 Y36.8747
G01 X20.8435 Y37.0957
G01 X20.7917 Y37.3113
G01 X20.7069 Y37.5161
G01 X20.5910 Y37.7051
G01 X20.4471 Y37.8737
G01 X20.2785 Y38.0177
G01 X20.2647 Y38.0263
G01 X20.2549 Y38.0339
G01 X20.2111 Y38.0767
G01 X20.2029 Y38.0857
G01 X20.1972 Y38.0936
G01 X20.1935 Y38.0998
G01 X20.1892 Y38.1085
G01 X20.1858 Y38.1176
G01 X20.1644 Y38.1904
G01 X20.1620 Y38.2020
G01 X20.1610 Y38.2139
G01 X20.1610 Y48.8651
G01 X20.1619 Y48.8851
G01 X20.1635 Y48.8949
G01 X20.1653 Y48.9021
G01 X20.1925 Y48.9756
G01 X20.1973 Y48.9865
G01 X20.2008 Y48.9927
G01 X20.2062 Y49.0006
G01 X20.2820 Y49.1018
G01 X20.3237 Y49.2130
G01 X20.3285 Y49.2573
G01 X20.3285 Y51.0427
G01 X20.3237 Y51.0870
G01 X20.2820 Y51.1982
G01 X20.2118 Y51.2918
G01 X20.1182 Y51.3620
G01 X20.0070 Y51.4037
G01 X19.9953 Y51.4050
G01 X19.9863 Y51.4066
G01 X19.9431 Y51.4184
G01 X19.9361 Y51.4206
G01 X19.9292 Y51.4233
G01 X19.9225 Y51.4266
G01 X19.9140 Y51.4317
G01 X19.9080 Y51.4361
G01 X19.8468 Y51.4890
G01 X19.8384 Y51.4982
G01 X19.8312 Y51.5083
G01 X19.8253 Y51.5192
G01 X19.8208 Y51.5307
G01 X19.7983 Y51.6081
G01 X19.7967 Y51.6175
G01 X19.7960 Y51.6294
G01 X19.7960 Y53.4406
G01 X19.7969 Y53.4543
G01 X19.8041 Y53.4986
G01 X19.8071 Y53.5106
G01 X19.8116 Y53.5222
G01 X19.8150 Y53.5288
G01 X19.8188 Y53.5352
G01 X19.8606 Y53.5956
G01 X19.8651 Y53.6015
G01 X19.8717 Y53.6089
G01 X19.8771 Y53.6140
G01 X19.8849 Y53.6202
G01 X19.8912 Y53.6243
G01 X19.8977 Y53.6279
G01 X19.9045 Y53.6310
G01 X19.9700 Y53.6582
G01 X19.9767 Y53.6607
G01 X19.9859 Y53.6633
G01 X19.9952 Y53.6650
G01 X20.0070 Y53.6663
G01 X20.1182 Y53.7080
G01 X20.2118 Y53.7782
G01 X20.2820 Y53.8718
G01 X20.3237 Y53.9830
G01 X20.3285 Y54.0273
G01 X20.3285 Y55.8127
G01 X20.3237 Y55.8570
G01 X20.2820 Y55.9682
G01 X20.2118 Y56.0618
G01 X20.1182 Y56.1320
G01 X20.0070 Y56.1737
G01 X19.9627 Y56.1785
G01 X18.1773 Y56.1785
G01 X18.1330 Y56.1737
G01 X18.0218 Y56.1320
G01 X17.9282 Y56.0618
G01 X17.8580 Y55.9682
G01 X17.8165 Y55.8579
G01 X17.8120 Y55.8488
G01 X17.7919 Y55.8131
G01 X17.7879 Y55.8070
G01 X17.7835 Y55.8011
G01 X17.7753 Y55.7922
G01 X17.7660 Y55.7843
G01 X17.7063 Y55.7416
G01 X17.7000 Y55.7375
G01 X17.6890 Y55.7317
G01 X17.6774 Y55.7273
G01 X17.6654 Y55.7245
G01 X17.6530 Y55.7231
G01 X17.5821 Y55.7196
G01 X17.5697 Y55.7198
G01 X17.5598 Y55.7210
G01 X17.5478 Y55.7239
G01 X17.5385 Y55.7273
G01 X17.5273 Y55.7328
G01 X17.4638 Y55.7695
G01 X17.4540 Y55.7763
G01 X17.4485 Y55.7809
G01 X17.4434 Y55.7858
G01 X17.3684 Y55.8643
G01 X17.2029 Y55.9886
G01 X17.0194 Y56.0841
G01 X16.8227 Y56.1484
G01 X16.6181 Y56.1797
G01 X16.4112 Y56.1772
G01 X16.2074 Y56.1409
G01 X16.0123 Y56.0718
G01 X15.8312 Y55.9718
G01 X15.6688 Y55.8436
G01 X15.5295 Y55.6905
G01 X15.4171 Y55.5167
G01 X15.3346 Y55.3270
G01 X15.2841 Y55.1263
G01 X15.2669 Y54.9171
G01 X15.2683 Y54.8612
G01 X15.2957 Y54.6531
G01 X15.3559 Y54.4551
G01 X15.4476 Y54.2696
G01 X15.5683 Y54.1015
G01 X15.7152 Y53.9552
G01 X15.7247 Y53.9473
G01 X15.7300 Y53.9422
G01 X15.7350 Y53.9367
G01 X15.7408 Y53.9290
G01 X15.7598 Y53.9089
G01 X15.7673 Y53.8989
G01 X15.7712 Y53.8925
G01 X15.7747 Y53.8858
G01 X15.7776 Y53.8789
G01 X15.7799 Y53.8718
G01 X15.8006 Y53.8014
G01 X15.8030 Y53.7897
G01 X15.8040 Y53.7779
G01 X15.8040 Y51.2899
G01 X15.8037 Y51.2828
G01 X15.8030 Y51.2757
G01 X15.7948 Y51.2275
G01 X15.7914 Y51.2155
G01 X15.7876 Y51.2062
G01 X15.7841 Y51.1995
G01 X15.7802 Y51.1931
G01 X15.7363 Y51.1312
G01 X15.7302 Y51.1239
G01 X15.7217 Y51.1155
G01 X15.6688 Y51.0736
G01 X15.5295 Y50.9205
G01 X15.4171 Y50.7467
G01 X15.3346 Y50.5570
G01 X15.2841 Y50.3563
G01 X15.2669 Y50.1471
G01 X15.2683 Y50.0912
G01 X15.2957 Y49.8831
G01 X15.3559 Y49.6851
G01 X15.4476 Y49.4996
G01 X15.5683 Y49.3315
G01 X15.7152 Y49.1852
G01 X15.7247 Y49.1773
G01 X15.7300 Y49.1722
G01 X15.7350 Y49.1667
G01 X15.7408 Y49.1590
G01 X15.7598 Y49.1389
G01 X15.7673 Y49.1289
G01 X15.7712 Y49.1225
G01 X15.7747 Y49.1158
G01 X15.7776 Y49.1089
G01 X15.7799 Y49.1018
G01 X15.8006 Y49.0314
G01 X15.8030 Y49.0197
G01 X15.8040 Y49.0079
G01 X15.8040 Y37.8292
G01 X15.8030 Y37.8124
G01 X15.8018 Y37.8052
G01 X15.8002 Y37.7982
G01 X15.7826 Y37.7481
G01 X15.7812 Y37.7412
G01 X15.7793 Y37.7341
G01 X15.7749 Y37.7227
G01 X15.7691 Y37.7118
G01 X15.6492 Y37.5161
G01 X15.5643 Y37.3113
G01 X15.5126 Y37.0957
G01 X15.4952 Y36.8747
G01 X15.5126 Y36.6536
G01 X15.5643 Y36.4381
G01 X15.6492 Y36.2332
G01 X15.7650 Y36.0442
G01 X15.9084 Y35.8764
G01 X16.0776 Y35.7316
G01 X16.2666 Y35.6158
G01 X16.4714 Y35.5310
G01 X16.6870 Y35.4792
G01 X16.9080 Y35.4618
G01 X17.1290 Y35.4792
G01 X17.3446 Y35.5310
G01 X17.5494 Y35.6158
G01 X17.7385 Y35.7316
G01 X17.9071 Y35.8756
G01 X18.0062 Y35.9917
G01 X18.0146 Y36.0004
G01 X18.0202 Y36.0052
G01 X18.0261 Y36.0095
G01 X18.0914 Y36.0514
G01 X18.0998 Y36.0561
G01 X18.1110 Y36.0606
G01 X18.1202 Y36.0633
G01 X18.1321 Y36.0654
G01 X18.1441 Y36.0660
G01 X18.2151 Y36.0655
G01 X18.2225 Y36.0652
G01 X18.2324 Y36.0639
G01 X18.2421 Y36.0616
G01 X18.2514 Y36.0584
G01 X18.2605 Y36.0543
G01 X18.2690 Y36.0493
G01 X18.3285 Y36.0105
G01 X18.3381 Y36.0034
G01 X18.3434 Y35.9986
G01 X18.3499 Y35.9917
G01 X18.4490 Y35.8756
G01 X18.6176 Y35.7316
G01 X18.8066 Y35.6158
G01 X19.0114 Y35.5310
G01 X19.2270 Y35.4792
G01 X19.4480 Y35.4618
G01 X19.6690 Y35.4792
G01 X19.8293 Y35.5177
G01 X19.8368 Y35.5192
G01 X19.8445 Y35.5201
G01 X19.8902 Y35.5236
G01 X19.9024 Y35.5230
G01 X19.9096 Y35.5219
G01 X19.9167 Y35.5203
G01 X19.9260 Y35.5173
G01 X19.9949 Y35.4916
G01 X20.0061 Y35.4863
G01 X20.0165 Y35.4796
G01 X20.0261 Y35.4717
G01 X20.0346 Y35.4626
G01 X20.0817 Y35.3999
G01 X20.0882 Y35.3893
G01 X20.0934 Y35.3781
G01 X20.0965 Y35.3686
G01 X20.0991 Y35.3565
G01 X20.0999 Y35.3491
G01 X20.1051 Y35.2758
G01 X20.1051 Y35.2659
G01 X20.1040 Y35.2560
G01 X20.1021 Y35.2463
G01 X20.0999 Y35.2391
G01 X20.0973 Y35.2322
G01 X20.0941 Y35.2254
G01 X20.0566 Y35.1568
G01 X20.0498 Y35.1470
G01 X20.0419 Y35.1381
G01 X11.6800 Y26.7763
G01 X11.6691 Y26.7660
G01 X11.6633 Y26.7613
G01 X11.6552 Y26.7557
G01 X11.6465 Y26.7510
G01 X11.5751 Y26.7185
G01 X11.5681 Y26.7160
G01 X11.5609 Y26.7140
G01 X11.5536 Y26.7126
G01 X11.5462 Y26.7117
G01 X11.5363 Y26.7114
G01 X11.5264 Y26.7121
G01 X11.4512 Y26.7229
G01 X11.4439 Y26.7244
G01 X11.4368 Y26.7265
G01 X11.4275 Y26.7300
G01 X11.4208 Y26.7333
G01 X11.4123 Y26.7384
G01 X11.4043 Y26.7443
G01 X11.3469 Y26.7940
G01 X11.3416 Y26.7993
G01 X11.3367 Y26.8049
G01 X11.3295 Y26.8150
G01 X11.3257 Y26.8214
G01 X11.3225 Y26.8281
G01 X11.3183 Y26.8398
G01 X11.2976 Y26.9102
G01 X11.2953 Y26.9219
G01 X11.2943 Y26.9337
G01 X11.2942 Y42.2208
G01 X4.0922 Y42.2208
G01 X4.0922 Y11.4038
G01 X9.5930 Y11.4038
G01 X9.6025 Y11.4033
G01 X9.6119 Y11.4019
G01 X9.6666 Y11.3901
G01 X9.6762 Y11.3875
G01 X9.6879 Y11.3829
G01 X9.6945 Y11.3794
G01 X9.7009 Y11.3755
G01 X9.7108 Y11.3679
G01 X9.7682 Y11.3181
G01 X9.7750 Y11.3109
G01 X9.7824 Y11.3010
G01 X9.7886 Y11.2902
G01 X9.7917 Y11.2834
G01 X9.7942 Y11.2764
G01 X9.8156 Y11.2036
G01 X9.8176 Y11.1943
G01 X9.8187 Y11.1849
G01 X9.8190 Y11.1778
G01 X9.8190 Y9.5992
G01 X9.8188 Y9.5922
G01 X9.8177 Y9.5830
G01 X9.8077 Y9.5302
G01 X9.8041 Y9.5184
G01 X9.8002 Y9.5094
G01 X9.7954 Y9.5008
G01 X9.7913 Y9.4946
G01 X9.7480 Y9.4381
G01 X9.7404 Y9.4292
G01 X9.7335 Y9.4228
G01 X9.5590 Y9.2737
G01 X9.4150 Y9.1051
G01 X9.2992 Y8.9161
G00 Z2.0000
G00 X10.1273 Y9.2865
G01 F100.00
G01 Z-0.0800
G01 F200.00
G01 X10.0395 Y9.2448
G01 X9.9469 Y9.1893
G01 X9.8602 Y9.1250
G01 X9.7802 Y9.0525
G01 X9.7077 Y8.9725
G01 X9.6434 Y8.8858
G01 X9.5879 Y8.7932
G01 X9.5418 Y8.6956
G01 X9.5054 Y8.5940
G01 X9.4792 Y8.4893
G01 X9.4633 Y8.3825
G01 X9.4580 Y8.2747
G01 X9.4633 Y8.1669
G01 X9.4792 Y8.0601
G01 X9.5054 Y7.9554
G01 X9.5418 Y7.8537
G01 X9.5879 Y7.7561
G01 X9.6434 Y7.6635
G01 X9.7077 Y7.5768
G01 X9.7802 Y7.4969
G01 X9.8602 Y7.4244
G01 X9.9469 Y7.3601
G01 X10.0395 Y7.3046
G01 X10.1371 Y7.2584
G01 X10.2387 Y7.2220
G01 X10.3434 Y7.1958
G01 X10.4502 Y7.1800
G01 X10.5580 Y7.1747
G01 X10.6658 Y7.1800
G01 X10.7726 Y7.1958
G01 X10.8773 Y7.2220
G01 X10.9790 Y7.2584
G01 X11.0766 Y7.3046
G01 X11.1650 Y7.3574
G01 X11.1732 Y7.3629
G01 X11.2559 Y7.4244
G01 X11.3323 Y7.4935
G01 X11.3392 Y7.5004
G01 X11.4083 Y7.5768
G01 X11.4726 Y7.6635
G01 X11.5281 Y7.7561
G01 X11.5723 Y7.8492
G01 X11.5761 Y7.8583
G01 X11.6107 Y7.9554
G01 X11.6358 Y8.0553
G01 X11.6377 Y8.0649
G01 X11.6527 Y8.1669
G01 X11.6580 Y8.2747
G01 X11.6531 Y8.3776
G01 X11.6521 Y8.3874
G01 X11.6369 Y8.4893
G01 X11.6107 Y8.5940
G01 X11.5761 Y8.6910
G01 X11.5723 Y8.7001
G01 X11.5281 Y8.7932
G01 X11.4726 Y8.8858
G01 X11.4083 Y8.9725
G01 X11.3392 Y9.0489
G01 X11.3323 Y9.0559
G01 X11.2559 Y9.1250
G01 X11.1692 Y9.1893
G01 X11.0808 Y9.2424
G01 X11.0722 Y9.2470
G01 X10.9835 Y9.2889
G01 X10.9767 Y9.2918
G01 X10.9627 Y9.2969
G01 X10.9626 Y16.0206
G01 X35.3244 Y40.3823
G01 X38.8730 Y40.3823
G01 X38.8787 Y40.3715
G01 X38.9191 Y40.3041
G01 X38.9245 Y40.2960
G01 X38.9743 Y40.2290
G01 X39.0336 Y40.1636
G01 X39.0990 Y40.1043
G01 X39.1660 Y40.0545
G01 X39.1741 Y40.0491
G01 X39.2415 Y40.0087
G01 X39.2501 Y40.0041
G01 X39.3256 Y39.9685
G01 X39.4087 Y39.9388
G01 X39.4944 Y39.9173
G01 X39.5769 Y39.9049
G01 X39.5867 Y39.9040
G01 X39.6651 Y39.9001
G01 X39.6749 Y39.9001
G01 X39.7582 Y39.9043
G01 X39.8432 Y39.9168
G01 X39.8504 Y39.9184
G01 X39.9313 Y39.9388
G01 X40.0098 Y39.9667
G01 X40.0189 Y39.9705
G01 X40.0943 Y40.0063
G01 X40.1659 Y40.0491
G01 X40.1740 Y40.0545
G01 X40.2371 Y40.1013
G01 X40.2447 Y40.1075
G01 X40.3064 Y40.1636
G01 X40.3657 Y40.2290
G01 X40.4183 Y40.3000
G01 X40.4613 Y40.3715
G01 X40.4670 Y40.3823
G01 X42.2125 Y40.3824
G01 X42.2509 Y40.3844
G01 X42.2866 Y40.3895
G01 X42.2963 Y40.3914
G01 X42.3312 Y40.4003
G01 X42.3653 Y40.4124
G01 X42.3743 Y40.4161
G01 X42.4025 Y40.4295
G01 X42.4112 Y40.4341
G01 X42.4379 Y40.4501
G01 X42.4461 Y40.4556
G01 X42.4750 Y40.4771
G01 X42.5053 Y40.5047
G01 X43.7753 Y41.7747
G01 X43.8013 Y41.8032
G01 X43.8273 Y41.8380
G01 X43.8459 Y41.8688
G01 X43.8505 Y41.8775
G01 X43.8639 Y41.9057
G01 X43.8676 Y41.9147
G01 X43.8797 Y41.9488
G01 X43.8896 Y41.9885
G01 X43.8956 Y42.0291
G01 X43.8976 Y42.0675
G01 X43.8977 Y49.5170
G01 X47.4630 Y53.0823
G01 X64.8970 Y53.0823
G01 X65.9223 Y52.0570
G01 X65.9223 Y50.6400
G01 X65.4900 Y50.6400
G01 X65.4826 Y50.6397
G01 X65.4753 Y50.6389
G01 X65.4681 Y50.6376
G01 X65.4610 Y50.6357
G01 X65.4540 Y50.6333
G01 X65.4472 Y50.6304
G01 X65.4386 Y50.6258
G01 X65.4324 Y50.6218
G01 X65.4266 Y50.6173
G01 X65.4210 Y50.6124
G01 X65.4159 Y50.6072
G01 X65.4097 Y50.5996
G01 X65.4055 Y50.5935
G01 X65.4018 Y50.5871
G01 X65.3976 Y50.5783
G01 X65.3950 Y50.5714
G01 X65.3930 Y50.5643
G01 X65.3915 Y50.5571
G01 X65.3905 Y50.5498
G01 X65.3900 Y50.5400
G01 X65.3900 Y48.8400
G01 X65.3903 Y48.8326
G01 X65.3915 Y48.8229
G01 X65.3930 Y48.8157
G01 X65.3958 Y48.8063
G01 X65.3986 Y48.7995
G01 X65.4030 Y48.7907
G01 X65.4069 Y48.7844
G01 X65.4127 Y48.7766
G01 X65.4193 Y48.7693
G01 X65.4247 Y48.7643
G01 X65.4304 Y48.7597
G01 X65.4386 Y48.7542
G01 X65.4450 Y48.7507
G01 X65.4540 Y48.7467
G01 X65.4610 Y48.7443
G01 X65.4705 Y48.7419
G01 X65.4802 Y48.7405
G01 X65.4900 Y48.7400
G01 X65.9223 Y48.7400
G01 X65.9223 Y48.5930
G01 X62.2347 Y44.9053
G01 X62.2104 Y44.8787
G01 X62.2041 Y44.8711
G01 X62.1827 Y44.8420
G01 X62.1641 Y44.8112
G01 X62.1595 Y44.8025
G01 X62.1441 Y44.7698
G01 X62.1319 Y44.7359
G01 X62.1290 Y44.7265
G01 X62.1204 Y44.6915
G01 X62.1150 Y44.6558
G01 X62.1140 Y44.6460
G01 X62.1124 Y44.6125
G01 X62.1124 Y42.0675
G01 X62.1144 Y42.0291
G01 X62.1204 Y41.9885
G01 X62.1303 Y41.9488
G01 X62.1441 Y41.9102
G01 X62.1617 Y41.8731
G01 X62.1827 Y41.8380
G01 X62.2071 Y41.8050
G01 X62.2330 Y41.7764
G01 X65.9223 Y38.0870
G01 X65.9223 Y17.1900
G01 X65.4900 Y17.1900
G01 X65.4778 Y17.1892
G01 X65.4705 Y17.1881
G01 X65.4633 Y17.1864
G01 X65.4563 Y17.1842
G01 X65.4495 Y17.1814
G01 X65.4429 Y17.1782
G01 X65.4365 Y17.1745
G01 X65.4304 Y17.1703
G01 X65.4247 Y17.1657
G01 X65.4159 Y17.1572
G01 X65.4112 Y17.1515
G01 X65.4069 Y17.1456
G01 X65.4030 Y17.1393
G01 X65.3996 Y17.1328
G01 X65.3967 Y17.1260
G01 X65.3943 Y17.1190
G01 X65.3924 Y17.1119
G01 X65.3911 Y17.1047
G01 X65.3903 Y17.0974
G01 X65.3900 Y17.0900
G01 X65.3901 Y15.3851
G01 X65.3911 Y15.3753
G01 X65.3930 Y15.3657
G01 X65.3950 Y15.3586
G01 X65.3986 Y15.3495
G01 X65.4030 Y15.3407
G01 X65.4082 Y15.3324
G01 X65.4143 Y15.3247
G01 X65.4193 Y15.3193
G01 X65.4266 Y15.3127
G01 X65.4344 Y15.3069
G01 X65.4407 Y15.3030
G01 X65.4495 Y15.2986
G01 X65.4586 Y15.2950
G01 X65.4681 Y15.2924
G01 X65.4778 Y15.2908
G01 X65.4851 Y15.2901
G01 X67.1900 Y15.2900
G01 X67.1974 Y15.2903
G01 X67.2047 Y15.2911
G01 X67.2119 Y15.2924
G01 X67.2214 Y15.2950
G01 X67.2305 Y15.2986
G01 X67.2371 Y15.3018
G01 X67.2456 Y15.3069
G01 X67.2515 Y15.3112
G01 X67.2590 Y15.3176
G01 X67.2673 Y15.3266
G01 X67.2731 Y15.3344
G01 X67.2793 Y15.3450
G01 X67.2842 Y15.3563
G01 X67.2870 Y15.3657
G01 X67.2892 Y15.3778
G01 X67.2900 Y15.3875
G01 X67.2900 Y17.0900
G01 X67.2892 Y17.1022
G01 X67.2870 Y17.1143
G01 X67.2850 Y17.1214
G01 X67.2824 Y17.1283
G01 X67.2793 Y17.1350
G01 X67.2758 Y17.1414
G01 X67.2718 Y17.1476
G01 X67.2673 Y17.1534
G01 X67.2624 Y17.1590
G01 X67.2572 Y17.1641
G01 X67.2515 Y17.1688
G01 X67.2456 Y17.1731
G01 X67.2393 Y17.1770
G01 X67.2328 Y17.1804
G01 X67.2260 Y17.1833
G01 X67.2190 Y17.1857
G01 X67.2119 Y17.1876
G01 X67.2047 Y17.1889
G01 X67.1974 Y17.1897
G01 X67.1900 Y17.1900
G01 X66.7577 Y17.1900
G01 X66.7577 Y38.2600
G01 X66.7556 Y38.3009
G01 X66.7505 Y38.3366
G01 X66.7486 Y38.3463
G01 X66.7410 Y38.3765
G01 X66.7381 Y38.3859
G01 X66.7259 Y38.4198
G01 X66.7083 Y38.4569
G01 X66.6899 Y38.4879
G01 X66.6844 Y38.4961
G01 X66.6629 Y38.5250
G01 X66.6370 Y38.5536
G01 X62.9477 Y42.2430
G01 X62.9477 Y44.4370
G01 X66.6353 Y48.1247
G01 X66.6596 Y48.1513
G01 X66.6659 Y48.1589
G01 X66.6873 Y48.1880
G01 X66.7059 Y48.2188
G01 X66.7105 Y48.2275
G01 X66.7259 Y48.2602
G01 X66.7381 Y48.2941
G01 X66.7410 Y48.3035
G01 X66.7501 Y48.3409
G01 X66.7556 Y48.3791
G01 X66.7576 Y48.4175
G01 X66.7577 Y48.7400
G01 X67.1900 Y48.7400
G01 X67.2022 Y48.7408
G01 X67.2095 Y48.7419
G01 X67.2167 Y48.7436
G01 X67.2283 Y48.7476
G01 X67.2350 Y48.7507
G01 X67.2414 Y48.7542
G01 X67.2515 Y48.7612
G01 X67.2572 Y48.7659
G01 X67.2624 Y48.7710
G01 X67.2703 Y48.7804
G01 X67.2745 Y48.7865
G01 X67.2782 Y48.7929
G01 X67.2814 Y48.7995
G01 X67.2842 Y48.8063
G01 X67.2870 Y48.8157
G01 X67.2885 Y48.8229
G01 X67.2895 Y48.8302
G01 X67.2900 Y48.8400
G01 X67.2900 Y50.5400
G01 X67.2897 Y50.5474
G01 X67.2885 Y50.5571
G01 X67.2870 Y50.5643
G01 X67.2850 Y50.5714
G01 X67.2824 Y50.5783
G01 X67.2793 Y50.5850
G01 X67.2758 Y50.5914
G01 X67.2703 Y50.5996
G01 X67.2657 Y50.6053
G01 X67.2607 Y50.6107
G01 X67.2553 Y50.6157
G01 X67.2496 Y50.6203
G01 X67.2414 Y50.6258
G01 X67.2350 Y50.6293
G01 X67.2283 Y50.6324
G01 X67.2190 Y50.6357
G01 X67.2119 Y50.6376
G01 X67.2047 Y50.6389
G01 X67.1974 Y50.6397
G01 X67.1900 Y50.6400
G01 X66.7577 Y50.6400
G01 X66.7577 Y52.2300
G01 X66.7560 Y52.2660
G01 X66.7550 Y52.2758
G01 X66.7505 Y52.3066
G01 X66.7486 Y52.3163
G01 X66.7397 Y52.3512
G01 X66.7259 Y52.3898
G01 X66.7105 Y52.4225
G01 X66.7059 Y52.4312
G01 X66.6873 Y52.4620
G01 X66.6644 Y52.4930
G01 X66.6353 Y52.5253
G01 X65.3618 Y53.7987
G01 X65.3350 Y53.8229
G01 X65.3020 Y53.8473
G01 X65.2669 Y53.8683
G01 X65.2343 Y53.8839
G01 X65.2253 Y53.8876
G01 X65.1959 Y53.8981
G01 X65.1865 Y53.9010
G01 X65.1515 Y53.9096
G01 X65.1085 Y53.9159
G01 X65.0700 Y53.9177
G01 X47.2900 Y53.9177
G01 X47.2491 Y53.9156
G01 X47.2085 Y53.9096
G01 X47.1735 Y53.9010
G01 X47.1641 Y53.8981
G01 X47.1347 Y53.8876
G01 X47.1257 Y53.8839
G01 X47.0931 Y53.8683
G01 X47.0580 Y53.8473
G01 X47.0250 Y53.8229
G01 X46.9964 Y53.7970
G01 X43.4800 Y50.2807
G01 X38.9950 Y54.7656
G01 X38.9684 Y54.7899
G01 X38.9608 Y54.7962
G01 X38.9318 Y54.8176
G01 X38.9009 Y54.8362
G01 X38.8922 Y54.8408
G01 X38.8595 Y54.8561
G01 X38.8256 Y54.8684
G01 X38.8162 Y54.8713
G01 X38.7812 Y54.8799
G01 X38.7455 Y54.8853
G01 X38.7358 Y54.8863
G01 X38.6997 Y54.8879
G01 X35.9174 Y54.8879
G01 X35.9174 Y55.3203
G01 X35.9169 Y55.3301
G01 X35.9159 Y55.3374
G01 X35.9138 Y55.3470
G01 X35.9115 Y55.3540
G01 X35.9088 Y55.3608
G01 X35.9044 Y55.3696
G01 X35.9005 Y55.3758
G01 X35.8947 Y55.3837
G01 X35.8898 Y55.3892
G01 X35.8827 Y55.3960
G01 X35.8750 Y55.4020
G01 X35.8688 Y55.4061
G01 X35.8601 Y55.4107
G01 X35.8534 Y55.4136
G01 X35.8441 Y55.4167
G01 X35.8369 Y55.4184
G01 X35.8296 Y55.4195
G01 X35.8198 Y55.4203
G01 X34.1174 Y55.4203
G01 X34.1100 Y55.4200
G01 X34.1027 Y55.4192
G01 X34.0955 Y55.4179
G01 X34.0884 Y55.4160
G01 X34.0814 Y55.4136
G01 X34.0746 Y55.4107
G01 X34.0681 Y55.4073
G01 X34.0618 Y55.4034
G01 X34.0559 Y55.3991
G01 X34.0502 Y55.3944
G01 X34.0417 Y55.3856
G01 X34.0371 Y55.3799
G01 X34.0329 Y55.3738
G01 X34.0292 Y55.3674
G01 X34.0260 Y55.3608
G01 X34.0232 Y55.3540
G01 X34.0210 Y55.3470
G01 X34.0193 Y55.3398
G01 X34.0181 Y55.3325
G01 X34.0174 Y55.3203
G01 X34.0174 Y54.8879
G01 X33.2796 Y54.8879
G01 X33.2640 Y54.9203
G01 X33.2186 Y54.9960
G01 X33.1648 Y55.0691
G01 X33.1602 Y55.0748
G01 X33.0991 Y55.1420
G01 X33.0338 Y55.2014
G01 X33.0262 Y55.2077
G01 X32.9531 Y55.2615
G01 X32.8752 Y55.3081
G01 X32.7954 Y55.3460
G01 X32.7864 Y55.3497
G01 X32.7032 Y55.3794
G01 X32.6175 Y55.4010
G01 X32.6079 Y55.4029
G01 X32.5205 Y55.4157
G01 X32.4298 Y55.4203
G01 X32.3392 Y55.4161
G01 X32.3294 Y55.4151
G01 X32.2420 Y55.4020
G01 X32.1516 Y55.3794
G01 X32.0684 Y55.3497
G01 X32.0593 Y55.3460
G01 X31.9796 Y55.3081
G01 X31.9016 Y55.2615
G01 X31.8286 Y55.2077
G01 X31.8210 Y55.2014
G01 X31.7556 Y55.1420
G01 X31.6946 Y55.0748
G01 X31.6403 Y55.0021
G01 X31.6361 Y54.9960
G01 X31.5907 Y54.9203
G01 X31.5752 Y54.8879
G01 X30.7396 Y54.8879
G01 X30.7240 Y54.9203
G01 X30.6786 Y54.9960
G01 X30.6248 Y55.0691
G01 X30.6202 Y55.0748
G01 X30.5591 Y55.1420
G01 X30.4938 Y55.2014
G01 X30.4862 Y55.2077
G01 X30.4131 Y55.2615
G01 X30.3352 Y55.3081
G01 X30.2554 Y55.3460
G01 X30.2464 Y55.3497
G01 X30.1632 Y55.3794
G01 X30.0775 Y55.4010
G01 X30.0679 Y55.4029
G01 X29.9805 Y55.4157
G01 X29.8923 Y55.4202
G01 X29.8825 Y55.4202
G01 X29.7992 Y55.4161
G01 X29.7894 Y55.4151
G01 X29.7020 Y55.4020
G01 X29.6116 Y55.3794
G01 X29.5284 Y55.3497
G01 X29.5193 Y55.3460
G01 X29.4396 Y55.3081
G01 X29.3616 Y55.2615
G01 X29.2886 Y55.2077
G01 X29.2810 Y55.2014
G01 X29.2156 Y55.1420
G01 X29.1546 Y55.0748
G01 X29.1003 Y55.0021
G01 X29.0961 Y54.9960
G01 X29.0507 Y54.9203
G01 X29.0352 Y54.8879
G01 X28.1996 Y54.8879
G01 X28.1840 Y54.9203
G01 X28.1386 Y54.9960
G01 X28.0848 Y55.0691
G01 X28.0802 Y55.0748
G01 X28.0225 Y55.1385
G01 X28.0156 Y55.1454
G01 X27.9501 Y55.2046
G01 X27.8772 Y55.2588
G01 X27.8710 Y55.2628
G01 X27.7952 Y55.3081
G01 X27.7154 Y55.3460
G01 X27.7064 Y55.3497
G01 X27.6232 Y55.3794
G01 X27.5375 Y55.4010
G01 X27.5279 Y55.4029
G01 X27.4381 Y55.4159
G01 X27.3474 Y55.4203
G01 X27.2592 Y55.4161
G01 X27.2494 Y55.4151
G01 X27.1620 Y55.4020
G01 X27.0716 Y55.3794
G01 X26.9884 Y55.3497
G01 X26.9793 Y55.3460
G01 X26.8974 Y55.3069
G01 X26.8196 Y55.2602
G01 X26.7486 Y55.2077
G01 X26.7410 Y55.2014
G01 X26.6739 Y55.1403
G01 X26.6130 Y55.0730
G01 X26.5589 Y55.0001
G01 X26.5549 Y54.9939
G01 X26.5107 Y54.9203
G01 X26.4952 Y54.8879
G01 X25.6596 Y54.8879
G01 X25.6440 Y54.9203
G01 X25.5986 Y54.9960
G01 X25.5448 Y55.0691
G01 X25.5402 Y55.0748
G01 X25.4825 Y55.1385
G01 X25.4756 Y55.1454
G01 X25.4101 Y55.2046
G01 X25.3372 Y55.2588
G01 X25.3310 Y55.2628
G01 X25.2552 Y55.3081
G01 X25.1754 Y55.3460
G01 X25.1664 Y55.3497
G01 X25.0832 Y55.3794
G01 X24.9975 Y55.4010
G01 X24.9879 Y55.4029
G01 X24.9054 Y55.4151
G01 X24.8956 Y55.4161
G01 X24.8074 Y55.4203
G01 X24.7143 Y55.4157
G01 X24.6220 Y55.4020
G01 X24.5316 Y55.3794
G01 X24.4438 Y55.3480
G01 X24.3596 Y55.3081
G01 X24.2796 Y55.2602
G01 X24.2066 Y55.2062
G01 X24.1392 Y55.1454
G01 X24.1322 Y55.1385
G01 X24.0730 Y55.0730
G01 X24.0175 Y54.9981
G01 X23.9720 Y54.9224
G01 X23.9674 Y54.9137
G01 X23.9297 Y54.8338
G01 X23.8983 Y54.7461
G01 X23.8756 Y54.6556
G01 X23.8626 Y54.5683
G01 X23.8616 Y54.5585
G01 X23.8574 Y54.4703
G01 X23.8620 Y54.3772
G01 X23.8748 Y54.2898
G01 X23.8767 Y54.2802
G01 X23.8983 Y54.1945
G01 X23.9279 Y54.1113
G01 X23.9317 Y54.1022
G01 X23.9696 Y54.0225
G01 X24.0175 Y53.9425
G01 X24.0700 Y53.8715
G01 X24.0762 Y53.8639
G01 X24.1356 Y53.7985
G01 X24.2047 Y53.7359
G01 X24.2756 Y53.6832
G01 X24.2837 Y53.6778
G01 X24.3596 Y53.6325
G01 X24.4438 Y53.5926
G01 X24.5316 Y53.5612
G01 X24.6173 Y53.5396
G01 X24.6269 Y53.5377
G01 X24.7167 Y53.5246
G01 X24.8074 Y53.5203
G01 X24.8956 Y53.5245
G01 X24.9054 Y53.5255
G01 X24.9927 Y53.5385
G01 X25.0832 Y53.5612
G01 X25.1664 Y53.5908
G01 X25.1754 Y53.5946
G01 X25.2574 Y53.6336
G01 X25.3352 Y53.6804
G01 X25.4062 Y53.7329
G01 X25.4138 Y53.7391
G01 X25.4808 Y53.8003
G01 X25.5417 Y53.8676
G01 X25.5959 Y53.9405
G01 X25.5999 Y53.9466
G01 X25.6440 Y54.0203
G01 X25.6596 Y54.0526
G01 X26.4952 Y54.0526
G01 X26.5107 Y54.0203
G01 X26.5561 Y53.9445
G01 X26.6100 Y53.8715
G01 X26.6146 Y53.8657
G01 X26.6722 Y53.8021
G01 X26.6792 Y53.7951
G01 X26.7447 Y53.7359
G01 X26.8176 Y53.6818
G01 X26.8953 Y53.6349
G01 X26.9039 Y53.6303
G01 X26.9838 Y53.5926
G01 X27.0670 Y53.5627
G01 X27.0763 Y53.5599
G01 X27.1620 Y53.5385
G01 X27.2494 Y53.5255
G01 X27.2592 Y53.5245
G01 X27.3474 Y53.5203
G01 X27.4356 Y53.5245
G01 X27.4454 Y53.5255
G01 X27.5327 Y53.5385
G01 X27.6232 Y53.5612
G01 X27.7064 Y53.5908
G01 X27.7154 Y53.5946
G01 X27.7974 Y53.6336
G01 X27.8752 Y53.6804
G01 X27.9462 Y53.7329
G01 X27.9538 Y53.7391
G01 X28.0208 Y53.8003
G01 X28.0817 Y53.8676
G01 X28.1359 Y53.9405
G01 X28.1399 Y53.9466
G01 X28.1840 Y54.0203
G01 X28.1996 Y54.0526
G01 X29.0352 Y54.0526
G01 X29.0507 Y54.0203
G01 X29.0961 Y53.9445
G01 X29.1500 Y53.8715
G01 X29.1546 Y53.8657
G01 X29.2156 Y53.7985
G01 X29.2810 Y53.7391
G01 X29.2886 Y53.7329
G01 X29.3616 Y53.6790
G01 X29.4396 Y53.6325
G01 X29.5193 Y53.5946
G01 X29.5284 Y53.5908
G01 X29.6116 Y53.5612
G01 X29.7020 Y53.5385
G01 X29.7894 Y53.5255
G01 X29.7992 Y53.5245
G01 X29.8874 Y53.5203
G01 X29.9756 Y53.5245
G01 X29.9854 Y53.5255
G01 X30.0727 Y53.5385
G01 X30.1632 Y53.5612
G01 X30.2464 Y53.5908
G01 X30.2554 Y53.5946
G01 X30.3352 Y53.6325
G01 X30.4131 Y53.6790
G01 X30.4862 Y53.7329
G01 X30.4938 Y53.7391
G01 X30.5591 Y53.7985
G01 X30.6202 Y53.8657
G01 X30.6248 Y53.8715
G01 X30.6786 Y53.9445
G01 X30.7240 Y54.0203
G01 X30.7396 Y54.0526
G01 X31.5752 Y54.0526
G01 X31.5907 Y54.0203
G01 X31.6361 Y53.9445
G01 X31.6900 Y53.8715
G01 X31.6946 Y53.8657
G01 X31.7556 Y53.7985
G01 X31.8210 Y53.7391
G01 X31.8286 Y53.7329
G01 X31.9016 Y53.6790
G01 X31.9796 Y53.6325
G01 X32.0593 Y53.5946
G01 X32.0684 Y53.5908
G01 X32.1516 Y53.5612
G01 X32.2420 Y53.5385
G01 X32.3294 Y53.5255
G01 X32.3392 Y53.5245
G01 X32.4274 Y53.5203
G01 X32.5156 Y53.5245
G01 X32.5254 Y53.5255
G01 X32.6127 Y53.5385
G01 X32.7032 Y53.5612
G01 X32.7864 Y53.5908
G01 X32.7954 Y53.5946
G01 X32.8752 Y53.6325
G01 X32.9531 Y53.6790
G01 X33.0262 Y53.7329
G01 X33.0338 Y53.7391
G01 X33.0991 Y53.7985
G01 X33.1602 Y53.8657
G01 X33.2145 Y53.9385
G01 X33.2186 Y53.9445
G01 X33.2640 Y54.0203
G01 X33.2796 Y54.0526
G01 X34.0174 Y54.0526
G01 X34.0174 Y53.6203
G01 X34.0181 Y53.6080
G01 X34.0193 Y53.6008
G01 X34.0210 Y53.5936
G01 X34.0232 Y53.5866
G01 X34.0260 Y53.5798
G01 X34.0292 Y53.5731
G01 X34.0329 Y53.5668
G01 X34.0371 Y53.5607
G01 X34.0417 Y53.5550
G01 X34.0467 Y53.5496
G01 X34.0521 Y53.5446
G01 X34.0578 Y53.5400
G01 X34.0639 Y53.5358
G01 X34.0702 Y53.5321
G01 X34.0769 Y53.5289
G01 X34.0884 Y53.5246
G01 X34.0955 Y53.5227
G01 X34.1027 Y53.5214
G01 X34.1100 Y53.5206
G01 X34.1174 Y53.5203
G01 X35.8174 Y53.5203
G01 X35.8272 Y53.5208
G01 X35.8345 Y53.5218
G01 X35.8441 Y53.5239
G01 X35.8511 Y53.5261
G01 X35.8601 Y53.5299
G01 X35.8667 Y53.5333
G01 X35.8729 Y53.5371
G01 X35.8808 Y53.5430
G01 X35.8863 Y53.5479
G01 X35.8931 Y53.5550
G01 X35.8991 Y53.5627
G01 X35.9032 Y53.5689
G01 X35.9067 Y53.5753
G01 X35.9107 Y53.5843
G01 X35.9131 Y53.5913
G01 X35.9155 Y53.6008
G01 X35.9169 Y53.6105
G01 X35.9174 Y53.6203
G01 X35.9174 Y54.0526
G01 X38.5267 Y54.0526
G01 X43.0623 Y49.5170
G01 X43.0623 Y42.2430
G01 X42.0370 Y41.2177
G01 X40.4670 Y41.2177
G01 X40.4613 Y41.2285
G01 X40.4183 Y41.3000
G01 X40.3687 Y41.3671
G01 X40.3625 Y41.3747
G01 X40.3064 Y41.4364
G01 X40.2447 Y41.4925
G01 X40.2371 Y41.4987
G01 X40.1740 Y41.5455
G01 X40.1659 Y41.5509
G01 X40.0943 Y41.5937
G01 X40.0189 Y41.6295
G01 X40.0098 Y41.6333
G01 X39.9313 Y41.6612
G01 X39.8456 Y41.6827
G01 X39.7631 Y41.6951
G01 X39.7533 Y41.6960
G01 X39.6675 Y41.7000
G01 X39.5818 Y41.6957
G01 X39.4993 Y41.6835
G01 X39.4896 Y41.6816
G01 X39.4087 Y41.6612
G01 X39.3302 Y41.6333
G01 X39.3211 Y41.6295
G01 X39.2457 Y41.5937
G01 X39.1741 Y41.5509
G01 X39.1660 Y41.5455
G01 X39.1029 Y41.4987
G01 X39.0953 Y41.4925
G01 X39.0336 Y41.4364
G01 X38.9775 Y41.3747
G01 X38.9713 Y41.3671
G01 X38.9217 Y41.3000
G01 X38.8787 Y41.2285
G01 X38.8730 Y41.2177
G01 X35.1490 Y41.2176
G01 X35.1105 Y41.2156
G01 X35.0748 Y41.2105
G01 X35.0652 Y41.2086
G01 X35.0349 Y41.2010
G01 X35.0255 Y41.1981
G01 X34.9916 Y41.1859
G01 X34.9545 Y41.1683
G01 X34.9194 Y41.1473
G01 X34.8884 Y41.1244
G01 X34.8561 Y41.0953
G01 X10.2497 Y16.4889
G01 X10.2221 Y16.4585
G01 X10.1977 Y16.4256
G01 X10.1766 Y16.3904
G01 X10.1591 Y16.3534
G01 X10.1453 Y16.3148
G01 X10.1354 Y16.2750
G01 X10.1293 Y16.2345
G01 X10.1274 Y16.1960
G01 X10.1273 Y9.2865
G00 Z2.0000
G00 X12.3845 Y9.4888
G01 F100.00
G01 Z-0.0800
G01 F200.00
G01 X12.6127 Y9.2606
G01 X12.6771 Y9.2909
G01 X12.7741 Y9.3258
G01 X12.7834 Y9.3286
G01 X12.8810 Y9.3530
G01 X12.8883 Y9.3544
G01 X12.9902 Y9.3694
G01 X13.0980 Y9.3747
G01 X13.2058 Y9.3694
G01 X13.3078 Y9.3544
G01 X13.3150 Y9.3530
G01 X13.4126 Y9.3286
G01 X13.4220 Y9.3258
G01 X13.5190 Y9.2909
G01 X13.5833 Y9.2606
G01 X13.8115 Y9.4888
G01 X13.7383 Y9.5335
G01 X13.5335 Y9.6181
G01 X13.3180 Y9.6697
G01 X13.0970 Y9.6869
G01 X12.8761 Y9.6694
G01 X12.6626 Y9.6181
G01 X12.4578 Y9.5335
G01 X12.3845 Y9.4888
G00 Z2.0000
G00 X12.3845 Y7.0606
G01 F100.00
G01 Z-0.0800
G01 F200.00
G01 X12.4578 Y7.0159
G01 X12.6626 Y6.9312
G01 X12.8781 Y6.8796
G01 X13.0990 Y6.8624
G01 X13.3199 Y6.8799
G01 X13.5335 Y6.9312
G01 X13.7383 Y7.0159
G01 X13.8115 Y7.0606
G01 X13.5833 Y7.2887
G01 X13.5190 Y7.2584
G01 X13.4220 Y7.2236
G01 X13.4126 Y7.2207
G01 X13.3150 Y7.1963
G01 X13.3078 Y7.1950
G01 X13.2058 Y7.1800
G01 X13.0980 Y7.1747
G01 X12.9902 Y7.1800
G01 X12.8883 Y7.1950
G01 X12.8810 Y7.1963
G01 X12.7834 Y7.2207
G01 X12.7741 Y7.2236
G01 X12.6771 Y7.2584
G01 X12.6127 Y7.2887
G01 X12.3845 Y7.0606
G00 Z2.0000
G00 X15.2073 Y7.2629
G01 F100.00
G01 Z-0.0800
G01 F200.00
G01 X15.2073 Y6.3842
G01 X15.2091 Y6.3457
G01 X15.2145 Y6.3075
G01 X15.2164 Y6.2979
G01 X15.2253 Y6.2629
G01 X15.2391 Y6.2243
G01 X15.2545 Y6.1917
G01 X15.2591 Y6.1830
G01 X15.2777 Y6.1521
G01 X15.3006 Y6.1211
G01 X15.3297 Y6.0888
G01 X18.4180 Y3.0006
G01 X18.4466 Y2.9748
G01 X18.4755 Y2.9532
G01 X18.4836 Y2.9477
G01 X18.5104 Y2.9317
G01 X18.5190 Y2.9271
G01 X18.5517 Y2.9118
G01 X18.5903 Y2.8980
G01 X18.6300 Y2.8880
G01 X18.6682 Y2.8823
G01 X18.7115 Y2.8800
G01 X51.6985 Y2.8800
G01 X51.7395 Y2.8820
G01 X51.7776 Y2.8876
G01 X51.8150 Y2.8967
G01 X51.8244 Y2.8995
G01 X51.8584 Y2.9118
G01 X51.8954 Y2.9293
G01 X51.9306 Y2.9504
G01 X51.9596 Y2.9718
G01 X51.9672 Y2.9780
G01 X51.9939 Y3.0023
G01 X57.9874 Y8.9959
G01 X58.0150 Y9.0263
G01 X58.0365 Y9.0552
G01 X58.0420 Y9.0633
G01 X58.0616 Y9.0965
G01 X58.0760 Y9.1269
G01 X58.0797 Y9.1360
G01 X58.0918 Y9.1700
G01 X58.1007 Y9.2049
G01 X58.1026 Y9.2146
G01 X58.1077 Y9.2503
G01 X58.1098 Y9.2912
G01 X58.1098 Y15.1579
G01 X58.1077 Y15.1988
G01 X58.1022 Y15.2370
G01 X58.0931 Y15.2744
G01 X58.0902 Y15.2838
G01 X58.0780 Y15.3177
G01 X58.0604 Y15.3548
G01 X58.0420 Y15.3858
G01 X58.0365 Y15.3940
G01 X58.0150 Y15.4229
G01 X57.9891 Y15.4515
G01 X55.7689 Y17.6718
G01 X55.7726 Y17.6835
G01 X55.7916 Y17.7596
G01 X55.7935 Y17.7693
G01 X55.8057 Y17.8518
G01 X55.8100 Y17.9400
G01 X55.8060 Y18.0233
G01 X55.8051 Y18.0331
G01 X55.7927 Y18.1156
G01 X55.7712 Y18.2013
G01 X55.7433 Y18.2798
G01 X55.7395 Y18.2889
G01 X55.7037 Y18.3643
G01 X55.6583 Y18.4400
G01 X55.6087 Y18.5071
G01 X55.6025 Y18.5147
G01 X55.5464 Y18.5764
G01 X55.4828 Y18.6341
G01 X55.4771 Y18.6387
G01 X55.4100 Y18.6883
G01 X55.3343 Y18.7337
G01 X55.2544 Y18.7715
G01 X55.1713 Y18.8012
G01 X55.0856 Y18.8227
G01 X54.9982 Y18.8357
G01 X54.9100 Y18.8400
G01 X54.8218 Y18.8357
G01 X54.7344 Y18.8227
G01 X54.6487 Y18.8012
G01 X54.5656 Y18.7715
G01 X54.4857 Y18.7337
G01 X54.4100 Y18.6883
G01 X54.3390 Y18.6357
G01 X54.2736 Y18.5764
G01 X54.2159 Y18.5128
G01 X54.2113 Y18.5071
G01 X54.1617 Y18.4400
G01 X54.1187 Y18.3685
G01 X54.1141 Y18.3599
G01 X54.0805 Y18.2889
G01 X54.0767 Y18.2798
G01 X54.0488 Y18.2013
G01 X54.0273 Y18.1156
G01 X54.0143 Y18.0282
G01 X54.0100 Y17.9400
G01 X54.0143 Y17.8518
G01 X54.0273 Y17.7644
G01 X54.0488 Y17.6787
G01 X54.0767 Y17.6002
G01 X54.0805 Y17.5911
G01 X54.1141 Y17.5201
G01 X54.1187 Y17.5115
G01 X54.1617 Y17.4400
G01 X54.2113 Y17.3729
G01 X54.2159 Y17.3672
G01 X54.2736 Y17.3036
G01 X54.3353 Y17.2475
G01 X54.3429 Y17.2413
G01 X54.4100 Y17.1917
G01 X54.4815 Y17.1487
G01 X54.4901 Y17.1441
G01 X54.5656 Y17.1085
G01 X54.6487 Y17.0788
G01 X54.7296 Y17.0584
G01 X54.7393 Y17.0565
G01 X54.8218 Y17.0443
G01 X54.9100 Y17.0400
G01 X54.9982 Y17.0443
G01 X55.0807 Y17.0565
G01 X55.0904 Y17.0584
G01 X55.1665 Y17.0774
G01 X55.1782 Y17.0811
G01 X57.2744 Y14.9849
G01 X57.2744 Y9.4642
G01 X51.5255 Y3.7153
G01 X18.8845 Y3.7153
G01 X16.0427 Y6.5572
G01 X16.0427 Y7.2524
G01 X16.0567 Y7.2575
G01 X16.0635 Y7.2604
G01 X16.1522 Y7.3023
G01 X16.1608 Y7.3070
G01 X16.2492 Y7.3601
G01 X16.3359 Y7.4244
G01 X16.4123 Y7.4935
G01 X16.4192 Y7.5004
G01 X16.4883 Y7.5768
G01 X16.5526 Y7.6635
G01 X16.6081 Y7.7561
G01 X16.6523 Y7.8492
G01 X16.6561 Y7.8583
G01 X16.6907 Y7.9554
G01 X16.7158 Y8.0553
G01 X16.7177 Y8.0649
G01 X16.7327 Y8.1669
G01 X16.7380 Y8.2747
G01 X16.7331 Y8.3776
G01 X16.7321 Y8.3874
G01 X16.7169 Y8.4893
G01 X16.6907 Y8.5940
G01 X16.6561 Y8.6910
G01 X16.6523 Y8.7001
G01 X16.6081 Y8.7932
G01 X16.5526 Y8.8858
G01 X16.4883 Y8.9725
G01 X16.4192 Y9.0489
G01 X16.4123 Y9.0559
G01 X16.3359 Y9.1250
G01 X16.2532 Y9.1865
G01 X16.2450 Y9.1919
G01 X16.1566 Y9.2448
G01 X16.0590 Y9.2909
G01 X15.9573 Y9.3273
G01 X15.8526 Y9.3535
G01 X15.7458 Y9.3694
G01 X15.6380 Y9.3747
G01 X15.5302 Y9.3694
G01 X15.4234 Y9.3535
G01 X15.3187 Y9.3273
G01 X15.2171 Y9.2909
G01 X15.1195 Y9.2448
G01 X15.0269 Y9.1893
G01 X14.9402 Y9.1250
G01 X14.8602 Y9.0525
G01 X14.7877 Y8.9725
G01 X14.7234 Y8.8858
G01 X14.6679 Y8.7932
G01 X14.6218 Y8.6956
G01 X14.5854 Y8.5940
G01 X14.5592 Y8.4893
G01 X14.5433 Y8.3825
G01 X14.5380 Y8.2747
G01 X14.5433 Y8.1669
G01 X14.5592 Y8.0601
G01 X14.5854 Y7.9554
G01 X14.6218 Y7.8537
G01 X14.6679 Y7.7561
G01 X14.7234 Y7.6635
G01 X14.7877 Y7.5768
G01 X14.8602 Y7.4969
G01 X14.9402 Y7.4244
G01 X15.0269 Y7.3601
G01 X15.1195 Y7.3046
G01 X15.2073 Y7.2629
G00 Z2.0000
G00 X17.7604 Y7.2571
G01 F100.00
G01 Z-0.0800
G01 F200.00
G01 X17.7604 Y6.4751
G01 X17.7622 Y6.4366
G01 X17.7676 Y6.3985
G01 X17.7695 Y6.3889
G01 X17.7783 Y6.3539
G01 X17.7904 Y6.3199
G01 X17.7941 Y6.3108
G01 X17.8097 Y6.2782
G01 X17.8281 Y6.2472
G01 X17.8336 Y6.2391
G01 X17.8552 Y6.2102
G01 X17.8827 Y6.1798
G01 X19.7730 Y4.2895
G01 X19.8016 Y4.2637
G01 X19.8345 Y4.2393
G01 X19.8697 Y4.2182
G01 X19.9023 Y4.2027
G01 X19.9113 Y4.1990
G01 X19.9407 Y4.1884
G01 X19.9501 Y4.1856
G01 X19.9851 Y4.1769
G01 X20.0256 Y4.1709
G01 X20.0666 Y4.1689
G01 X46.6366 Y4.1689
G01 X46.6775 Y4.1709
G01 X46.7132 Y4.1761
G01 X46.7229 Y4.1780
G01 X46.7531 Y4.1856
G01 X46.7625 Y4.1884
G01 X46.7964 Y4.2007
G01 X46.8335 Y4.2182
G01 X46.8686 Y4.2393
G01 X46.8977 Y4.2607
G01 X46.9053 Y4.2669
G01 X46.9319 Y4.2913
G01 X54.6418 Y12.0011
G01 X54.6535 Y11.9974
G01 X54.7344 Y11.9773
G01 X54.8169 Y11.9649
G01 X54.8267 Y11.9640
G01 X54.9100 Y11.9600
G01 X54.9933 Y11.9640
G01 X55.0031 Y11.9649
G01 X55.0807 Y11.9765
G01 X55.0904 Y11.9784
G01 X55.1713 Y11.9988
G01 X55.2498 Y12.0267
G01 X55.2589 Y12.0305
G01 X55.3343 Y12.0663
G01 X55.4059 Y12.1091
G01 X55.4140 Y12.1145
G01 X55.4810 Y12.1643
G01 X55.5446 Y12.2219
G01 X55.5498 Y12.2272
G01 X55.6057 Y12.2890
G01 X55.6555 Y12.3560
G01 X55.6609 Y12.3641
G01 X55.7037 Y12.4357
G01 X55.7395 Y12.5111
G01 X55.7433 Y12.5202
G01 X55.7712 Y12.5987
G01 X55.7927 Y12.6844
G01 X55.8051 Y12.7669
G01 X55.8060 Y12.7767
G01 X55.8099 Y12.8551
G01 X55.8099 Y12.8649
G01 X55.8057 Y12.9482
G01 X55.7935 Y13.0307
G01 X55.7916 Y13.0404
G01 X55.7712 Y13.1213
G01 X55.7433 Y13.1998
G01 X55.7395 Y13.2089
G01 X55.7037 Y13.2843
G01 X55.6609 Y13.3559
G01 X55.6555 Y13.3640
G01 X55.6057 Y13.4310
G01 X55.5498 Y13.4928
G01 X55.5428 Y13.4998
G01 X55.4810 Y13.5557
G01 X55.4140 Y13.6055
G01 X55.4059 Y13.6109
G01 X55.3343 Y13.6537
G01 X55.2589 Y13.6895
G01 X55.2498 Y13.6933
G01 X55.1713 Y13.7212
G01 X55.0904 Y13.7416
G01 X55.0807 Y13.7435
G01 X54.9982 Y13.7557
G01 X54.9149 Y13.7599
G01 X54.9051 Y13.7599
G01 X54.8218 Y13.7557
G01 X54.7393 Y13.7435
G01 X54.7296 Y13.7416
G01 X54.6487 Y13.7212
G01 X54.5702 Y13.6933
G01 X54.5611 Y13.6895
G01 X54.4857 Y13.6537
G01 X54.4141 Y13.6109
G01 X54.4060 Y13.6055
G01 X54.3372 Y13.5541
G01 X54.2736 Y13.4964
G01 X54.2175 Y13.4347
G01 X54.2113 Y13.4271
G01 X54.1617 Y13.3600
G01 X54.1163 Y13.2843
G01 X54.0805 Y13.2089
G01 X54.0767 Y13.1998
G01 X54.0488 Y13.1213
G01 X54.0273 Y13.0356
G01 X54.0149 Y12.9531
G01 X54.0140 Y12.9433
G01 X54.0100 Y12.8600
G01 X54.0143 Y12.7718
G01 X54.0265 Y12.6893
G01 X54.0284 Y12.6796
G01 X54.0474 Y12.6035
G01 X54.0511 Y12.5918
G01 X46.4636 Y5.0042
G01 X20.2396 Y5.0042
G01 X18.5957 Y6.6481
G01 X18.5957 Y7.2571
G01 X18.6035 Y7.2604
G01 X18.6922 Y7.3023
G01 X18.7008 Y7.3070
G01 X18.7892 Y7.3601
G01 X18.8759 Y7.4244
G01 X18.9558 Y7.4969
G01 X19.0251 Y7.5731
G01 X19.0314 Y7.5807
G01 X19.0898 Y7.6595
G01 X19.0953 Y7.6677
G01 X19.1481 Y7.7561
G01 X19.1943 Y7.8537
G01 X19.2307 Y7.9554
G01 X19.2558 Y8.0553
G01 X19.2577 Y8.0649
G01 X19.2721 Y8.1620
G01 X19.2731 Y8.1717
G01 X19.2780 Y8.2747
G01 X19.2731 Y8.3776
G01 X19.2725 Y8.3849
G01 X19.2569 Y8.4893
G01 X19.2307 Y8.5940
G01 X19.1943 Y8.6956
G01 X19.1503 Y8.7888
G01 X19.1457 Y8.7975
G01 X19.0953 Y8.8816
G01 X19.0898 Y8.8898
G01 X19.0283 Y8.9725
G01 X18.9558 Y9.0525
G01 X18.8759 Y9.1250
G01 X18.7892 Y9.1893
G01 X18.6966 Y9.2448
G01 X18.6035 Y9.2889
G01 X18.5944 Y9.2927
G01 X18.5020 Y9.3258
G01 X18.4926 Y9.3286
G01 X18.3926 Y9.3535
G01 X18.2907 Y9.3688
G01 X18.2834 Y9.3696
G01 X18.1780 Y9.3747
G01 X18.0702 Y9.3694
G01 X17.9634 Y9.3535
G01 X17.8634 Y9.3286
G01 X17.8541 Y9.3258
G01 X17.7617 Y9.2927
G01 X17.7526 Y9.2889
G01 X17.6595 Y9.2448
G01 X17.5710 Y9.1919
G01 X17.5629 Y9.1865
G01 X17.4802 Y9.1250
G01 X17.4002 Y9.0525
G01 X17.3277 Y8.9725
G01 X17.2634 Y8.8858
G01 X17.2079 Y8.7932
G01 X17.1618 Y8.6956
G01 X17.1254 Y8.5940
G01 X17.1002 Y8.4941
G01 X17.0983 Y8.4844
G01 X17.0833 Y8.3825
G01 X17.0781 Y8.2796
G01 X17.0781 Y8.2698
G01 X17.0830 Y8.1717
G01 X17.0839 Y8.1620
G01 X17.0992 Y8.0601
G01 X17.1254 Y7.9554
G01 X17.1618 Y7.8537
G01 X17.2079 Y7.7561
G01 X17.2634 Y7.6635
G01 X17.3277 Y7.5768
G01 X17.4002 Y7.4969
G01 X17.4765 Y7.4276
G01 X17.4841 Y7.4213
G01 X17.5629 Y7.3629
G01 X17.5710 Y7.3574
G01 X17.6595 Y7.3046
G01 X17.7526 Y7.2604
G01 X17.7604 Y7.2571
G00 Z2.0000
G00 X20.3004 Y7.2571
G01 F100.00
G01 Z-0.0800
G01 F200.00
G01 X20.3004 Y6.9402
G01 X20.3024 Y6.9017
G01 X20.3079 Y6.8636
G01 X20.3183 Y6.8214
G01 X20.3304 Y6.7874
G01 X20.3341 Y6.7784
G01 X20.3497 Y6.7458
G01 X20.3681 Y6.7148
G01 X20.3736 Y6.7066
G01 X20.3936 Y6.6796
G01 X20.4227 Y6.6473
G01 X21.2915 Y5.7785
G01 X21.3182 Y5.7542
G01 X21.3258 Y5.7480
G01 X21.3508 Y5.7294
G01 X21.3590 Y5.7239
G01 X21.3900 Y5.7055
G01 X21.4270 Y5.6880
G01 X21.4656 Y5.6742
G01 X21.5006 Y5.6653
G01 X21.5102 Y5.6634
G01 X21.5484 Y5.6580
G01 X21.5869 Y5.6562
G01 X45.5838 Y5.6562
G01 X45.6248 Y5.6582
G01 X45.6677 Y5.6647
G01 X45.7051 Y5.6742
G01 X45.7391 Y5.6862
G01 X45.7481 Y5.6900
G01 X45.7807 Y5.7055
G01 X45.8159 Y5.7266
G01 X45.8449 Y5.7480
G01 X45.8525 Y5.7542
G01 X45.8792 Y5.7785
G01 X54.6418 Y14.5411
G01 X54.6535 Y14.5374
G01 X54.7344 Y14.5173
G01 X54.8169 Y14.5049
G01 X54.8267 Y14.5040
G01 X54.9100 Y14.5000
G01 X54.9933 Y14.5040
G01 X55.0031 Y14.5049
G01 X55.0807 Y14.5165
G01 X55.0904 Y14.5184
G01 X55.1713 Y14.5388
G01 X55.2498 Y14.5667
G01 X55.2589 Y14.5705
G01 X55.3343 Y14.6063
G01 X55.4100 Y14.6517
G01 X55.4771 Y14.7013
G01 X55.4847 Y14.7075
G01 X55.5464 Y14.7636
G01 X55.6057 Y14.8290
G01 X55.6555 Y14.8960
G01 X55.6609 Y14.9041
G01 X55.7037 Y14.9757
G01 X55.7395 Y15.0511
G01 X55.7433 Y15.0602
G01 X55.7712 Y15.1387
G01 X55.7916 Y15.2196
G01 X55.7935 Y15.2293
G01 X55.8057 Y15.3118
G01 X55.8099 Y15.3951
G01 X55.8099 Y15.4049
G01 X55.8057 Y15.4882
G01 X55.7935 Y15.5707
G01 X55.7922 Y15.5780
G01 X55.7726 Y15.6565
G01 X55.7697 Y15.6659
G01 X55.7415 Y15.7444
G01 X55.7059 Y15.8199
G01 X55.7013 Y15.8285
G01 X55.6583 Y15.9000
G01 X55.6087 Y15.9671
G01 X55.6025 Y15.9747
G01 X55.5464 Y16.0364
G01 X55.4847 Y16.0925
G01 X55.4771 Y16.0987
G01 X55.4100 Y16.1483
G01 X55.3385 Y16.1913
G01 X55.3299 Y16.1959
G01 X55.2544 Y16.2315
G01 X55.1759 Y16.2597
G01 X55.1665 Y16.2626
G01 X55.0856 Y16.2827
G01 X55.0031 Y16.2951
G01 X54.9933 Y16.2960
G01 X54.9100 Y16.3000
G01 X54.8267 Y16.2960
G01 X54.8169 Y16.2951
G01 X54.7344 Y16.2827
G01 X54.6535 Y16.2626
G01 X54.6441 Y16.2597
G01 X54.5656 Y16.2315
G01 X54.4901 Y16.1959
G01 X54.4815 Y16.1913
G01 X54.4100 Y16.1483
G01 X54.3429 Y16.0987
G01 X54.3372 Y16.0941
G01 X54.2736 Y16.0364
G01 X54.2175 Y15.9747
G01 X54.2113 Y15.9671
G01 X54.1617 Y15.9000
G01 X54.1163 Y15.8243
G01 X54.0805 Y15.7489
G01 X54.0767 Y15.7398
G01 X54.0488 Y15.6613
G01 X54.0273 Y15.5756
G01 X54.0149 Y15.4931
G01 X54.0140 Y15.4833
G01 X54.0100 Y15.4000
G01 X54.0143 Y15.3118
G01 X54.0265 Y15.2293
G01 X54.0284 Y15.2196
G01 X54.0474 Y15.1435
G01 X54.0511 Y15.1318
G01 X45.4108 Y6.4915
G01 X21.7599 Y6.4915
G01 X21.1357 Y7.1157
G01 X21.1357 Y7.2571
G01 X21.1435 Y7.2604
G01 X21.2366 Y7.3046
G01 X21.3292 Y7.3601
G01 X21.4159 Y7.4244
G01 X21.4958 Y7.4969
G01 X21.5683 Y7.5768
G01 X21.6326 Y7.6635
G01 X21.6881 Y7.7561
G01 X21.7323 Y7.8492
G01 X21.7352 Y7.8560
G01 X21.7707 Y7.9554
G01 X21.7969 Y8.0601
G01 X21.8127 Y8.1669
G01 X21.8180 Y8.2747
G01 X21.8127 Y8.3825
G01 X21.7969 Y8.4893
G01 X21.7707 Y8.5940
G01 X21.7361 Y8.6910
G01 X21.7323 Y8.7001
G01 X21.6903 Y8.7888
G01 X21.6857 Y8.7975
G01 X21.6326 Y8.8858
G01 X21.5683 Y8.9725
G01 X21.4992 Y9.0489
G01 X21.4923 Y9.0559
G01 X21.4159 Y9.1250
G01 X21.3292 Y9.1893
G01 X21.2408 Y9.2424
G01 X21.2322 Y9.2470
G01 X21.1390 Y9.2909
G01 X21.0373 Y9.3273
G01 X20.9374 Y9.3525
G01 X20.9278 Y9.3544
G01 X20.8258 Y9.3694
G01 X20.7205 Y9.3746
G01 X20.7131 Y9.3745
G01 X20.6102 Y9.3694
G01 X20.5083 Y9.3544
G01 X20.4986 Y9.3525
G01 X20.4034 Y9.3286
G01 X20.3941 Y9.3258
G01 X20.2971 Y9.2909
G01 X20.1995 Y9.2448
G01 X20.1069 Y9.1893
G01 X20.0202 Y9.1250
G01 X19.9402 Y9.0525
G01 X19.8709 Y8.9762
G01 X19.8647 Y8.9686
G01 X19.8062 Y8.8898
G01 X19.8008 Y8.8816
G01 X19.7479 Y8.7932
G01 X19.7018 Y8.6956
G01 X19.6654 Y8.5940
G01 X19.6392 Y8.4893
G01 X19.6233 Y8.3825
G01 X19.6180 Y8.2747
G01 X19.6233 Y8.1669
G01 X19.6383 Y8.0649
G01 X19.6402 Y8.0553
G01 X19.6641 Y7.9601
G01 X19.6669 Y7.9507
G01 X19.7018 Y7.8537
G01 X19.7479 Y7.7561
G01 X19.8034 Y7.6635
G01 X19.8677 Y7.5768
G01 X19.9402 Y7.4969
G01 X20.0165 Y7.4276
G01 X20.0241 Y7.4213
G01 X20.1029 Y7.3629
G01 X20.1110 Y7.3574
G01 X20.1995 Y7.3046
G01 X20.2926 Y7.2604
G01 X20.3004 Y7.2571
G00 Z2.0000
G00 X22.8404 Y9.2922
G01 F100.00
G01 Z-0.0800
G01 F200.00
G01 X22.8326 Y9.2889
G01 X22.7395 Y9.2448
G01 X22.6469 Y9.1893
G01 X22.5602 Y9.1250
G01 X22.4802 Y9.0525
G01 X22.4077 Y8.9725
G01 X22.3434 Y8.8858
G01 X22.2879 Y8.7932
G01 X22.2418 Y8.6956
G01 X22.2054 Y8.5940
G01 X22.1792 Y8.4893
G01 X22.1633 Y8.3825
G01 X22.1580 Y8.2747
G01 X22.1633 Y8.1669
G01 X22.1792 Y8.0601
G01 X22.2054 Y7.9554
G01 X22.2418 Y7.8537
G01 X22.2879 Y7.7561
G01 X22.3434 Y7.6635
G01 X22.4077 Y7.5768
G01 X22.4802 Y7.4969
G01 X22.5602 Y7.4244
G01 X22.6469 Y7.3601
G01 X22.7395 Y7.3046
G01 X22.8371 Y7.2584
G01 X22.9387 Y7.2220
G01 X23.0434 Y7.1958
G01 X23.1502 Y7.1800
G01 X23.2580 Y7.1747
G01 X23.3658 Y7.1800
G01 X23.4726 Y7.1958
G01 X23.5773 Y7.2220
G01 X23.6790 Y7.2584
G01 X23.7766 Y7.3046
G01 X23.8650 Y7.3574
G01 X23.8732 Y7.3629
G01 X23.9559 Y7.4244
G01 X24.0323 Y7.4935
G01 X24.0392 Y7.5004
G01 X24.1083 Y7.5768
G01 X24.1726 Y7.6635
G01 X24.2281 Y7.7561
G01 X24.2723 Y7.8492
G01 X24.2761 Y7.8583
G01 X24.3107 Y7.9554
G01 X24.3358 Y8.0553
G01 X24.3377 Y8.0649
G01 X24.3527 Y8.1669
G01 X24.3580 Y8.2747
G01 X24.3531 Y8.3776
G01 X24.3521 Y8.3874
G01 X24.3369 Y8.4893
G01 X24.3107 Y8.5940
G01 X24.2761 Y8.6910
G01 X24.2723 Y8.7001
G01 X24.2281 Y8.7932
G01 X24.1726 Y8.8858
G01 X24.1083 Y8.9725
G01 X24.0392 Y9.0489
G01 X24.0323 Y9.0559
G01 X23.9559 Y9.1250
G01 X23.8692 Y9.1893
G01 X23.7808 Y9.2424
G01 X23.7722 Y9.2470
G01 X23.6835 Y9.2889
G01 X23.6757 Y9.2922
G01 X23.6757 Y10.5140
G01 X26.3202 Y13.1585
G01 X35.7575 Y13.1585
G01 X36.3549 Y12.5613
G01 X36.3780 Y12.5404
G01 X36.3856 Y12.5341
G01 X36.4146 Y12.5127
G01 X36.4455 Y12.4941
G01 X36.4542 Y12.4895
G01 X36.4868 Y12.4741
G01 X36.5254 Y12.4603
G01 X36.5652 Y12.4504
G01 X36.6009 Y12.4450
G01 X36.6106 Y12.4440
G01 X36.6467 Y12.4423
G01 X38.8730 Y12.4423
G01 X38.8787 Y12.4315
G01 X38.9217 Y12.3600
G01 X38.9713 Y12.2929
G01 X38.9775 Y12.2853
G01 X39.0336 Y12.2236
G01 X39.0953 Y12.1675
G01 X39.1029 Y12.1613
G01 X39.1660 Y12.1145
G01 X39.1741 Y12.1091
G01 X39.2457 Y12.0663
G01 X39.3211 Y12.0305
G01 X39.3302 Y12.0267
G01 X39.4087 Y11.9988
G01 X39.4896 Y11.9784
G01 X39.4993 Y11.9765
G01 X39.5818 Y11.9643
G01 X39.6700 Y11.9600
G01 X39.7582 Y11.9643
G01 X39.8456 Y11.9773
G01 X39.9313 Y11.9988
G01 X40.0098 Y12.0267
G01 X40.0189 Y12.0305
G01 X40.0943 Y12.0663
G01 X40.1659 Y12.1091
G01 X40.1740 Y12.1145
G01 X40.2371 Y12.1613
G01 X40.2447 Y12.1675
G01 X40.3064 Y12.2236
G01 X40.3657 Y12.2890
G01 X40.4183 Y12.3600
G01 X40.4613 Y12.4315
G01 X40.4659 Y12.4401
G01 X40.4995 Y12.5111
G01 X40.5033 Y12.5202
G01 X40.5312 Y12.5987
G01 X40.5516 Y12.6796
G01 X40.5535 Y12.6893
G01 X40.5657 Y12.7718
G01 X40.5700 Y12.8600
G01 X40.5657 Y12.9482
G01 X40.5527 Y13.0356
G01 X40.5312 Y13.1213
G01 X40.5033 Y13.1998
G01 X40.4995 Y13.2089
G01 X40.4659 Y13.2799
G01 X40.4613 Y13.2885
G01 X40.4183 Y13.3600
G01 X40.3657 Y13.4310
G01 X40.3064 Y13.4964
G01 X40.2447 Y13.5525
G01 X40.2371 Y13.5587
G01 X40.1740 Y13.6055
G01 X40.1659 Y13.6109
G01 X40.0943 Y13.6537
G01 X40.0144 Y13.6915
G01 X39.9313 Y13.7212
G01 X39.8504 Y13.7416
G01 X39.8407 Y13.7435
G01 X39.7558 Y13.7559
G01 X39.6700 Y13.7600
G01 X39.5867 Y13.7560
G01 X39.5769 Y13.7551
G01 X39.4944 Y13.7427
G01 X39.4135 Y13.7226
G01 X39.4041 Y13.7197
G01 X39.3256 Y13.6915
G01 X39.2457 Y13.6537
G01 X39.1741 Y13.6109
G01 X39.1660 Y13.6055
G01 X39.0990 Y13.5557
G01 X39.0336 Y13.4964
G01 X38.9743 Y13.4310
G01 X38.9245 Y13.3640
G01 X38.9191 Y13.3559
G01 X38.8787 Y13.2885
G01 X38.8730 Y13.2777
G01 X36.8197 Y13.2777
G01 X36.2259 Y13.8715
G01 X36.1955 Y13.8990
G01 X36.1626 Y13.9234
G01 X36.1317 Y13.9421
G01 X36.1230 Y13.9467
G01 X36.0904 Y13.9620
G01 X36.0518 Y13.9758
G01 X36.0168 Y13.9847
G01 X36.0072 Y13.9866
G01 X35.9690 Y13.9920
G01 X35.9305 Y13.9938
G01 X26.1472 Y13.9938
G01 X26.1062 Y13.9918
G01 X26.0657 Y13.9858
G01 X26.0306 Y13.9771
G01 X26.0213 Y13.9743
G01 X25.9873 Y13.9620
G01 X25.9503 Y13.9445
G01 X25.9193 Y13.9260
G01 X25.9111 Y13.9206
G01 X25.8822 Y13.8990
G01 X25.8536 Y13.8732
G01 X22.9627 Y10.9824
G01 X22.9352 Y10.9520
G01 X22.9121 Y10.9211
G01 X22.8921 Y10.8882
G01 X22.8875 Y10.8795
G01 X22.8722 Y10.8469
G01 X22.8583 Y10.8083
G01 X22.8495 Y10.7733
G01 X22.8476 Y10.7637
G01 X22.8424 Y10.7280
G01 X22.8405 Y10.6919
G01 X22.8404 Y9.2922
G00 Z2.0000
G00 X25.3804 Y9.2922
G01 F100.00
G01 Z-0.0800
G01 F200.00
G01 X25.3726 Y9.2889
G01 X25.2795 Y9.2448
G01 X25.1869 Y9.1893
G01 X25.1002 Y9.1250
G01 X25.0202 Y9.0525
G01 X24.9477 Y8.9725
G01 X24.8834 Y8.8858
G01 X24.8279 Y8.7932
G01 X24.7818 Y8.6956
G01 X24.7454 Y8.5940
G01 X24.7192 Y8.4893
G01 X24.7033 Y8.3825
G01 X24.6980 Y8.2747
G01 X24.7033 Y8.1669
G01 X24.7192 Y8.0601
G01 X24.7454 Y7.9554
G01 X24.7818 Y7.8537
G01 X24.8279 Y7.7561
G01 X24.8834 Y7.6635
G01 X24.9477 Y7.5768
G01 X25.0202 Y7.4969
G01 X25.1002 Y7.4244
G01 X25.1869 Y7.3601
G01 X25.2795 Y7.3046
G01 X25.3771 Y7.2584
G01 X25.4787 Y7.2220
G01 X25.5834 Y7.1958
G01 X25.6902 Y7.1800
G01 X25.7980 Y7.1747
G01 X25.9058 Y7.1800
G01 X26.0126 Y7.1958
G01 X26.1173 Y7.2220
G01 X26.2190 Y7.2584
G01 X26.3166 Y7.3046
G01 X26.4050 Y7.3574
G01 X26.4132 Y7.3629
G01 X26.4959 Y7.4244
G01 X26.5723 Y7.4935
G01 X26.5792 Y7.5004
G01 X26.6483 Y7.5768
G01 X26.7126 Y7.6635
G01 X26.7681 Y7.7561
G01 X26.8123 Y7.8492
G01 X26.8161 Y7.8583
G01 X26.8507 Y7.9554
G01 X26.8758 Y8.0553
G01 X26.8777 Y8.0649
G01 X26.8927 Y8.1669
G01 X26.8980 Y8.2747
G01 X26.8931 Y8.3776
G01 X26.8921 Y8.3874
G01 X26.8769 Y8.4893
G01 X26.8507 Y8.5940
G01 X26.8161 Y8.6910
G01 X26.8123 Y8.7001
G01 X26.7681 Y8.7932
G01 X26.7126 Y8.8858
G01 X26.6483 Y8.9725
G01 X26.5792 Y9.0489
G01 X26.5723 Y9.0559
G01 X26.4959 Y9.1250
G01 X26.4092 Y9.1893
G01 X26.3208 Y9.2424
G01 X26.3122 Y9.2470
G01 X26.2235 Y9.2889
G01 X26.2157 Y9.2922
G01 X26.2157 Y10.3433
G01 X27.7088 Y11.8365
G01 X34.8321 Y11.8365
G01 X36.8267 Y9.8419
G01 X36.8554 Y9.8161
G01 X36.8883 Y9.7917
G01 X36.9234 Y9.7706
G01 X36.9560 Y9.7551
G01 X36.9651 Y9.7513
G01 X36.9944 Y9.7408
G01 X37.0038 Y9.7380
G01 X37.0388 Y9.7293
G01 X37.0794 Y9.7233
G01 X37.1203 Y9.7213
G01 X46.7362 Y9.7213
G01 X46.7772 Y9.7233
G01 X46.8177 Y9.7293
G01 X46.8575 Y9.7393
G01 X46.8961 Y9.7531
G01 X46.9331 Y9.7706
G01 X46.9683 Y9.7917
G01 X47.0012 Y9.8161
G01 X47.0316 Y9.8436
G01 X52.2602 Y15.0723
G01 X52.2878 Y15.1027
G01 X52.3093 Y15.1316
G01 X52.3148 Y15.1397
G01 X52.3332 Y15.1707
G01 X52.3488 Y15.2033
G01 X52.3525 Y15.2124
G01 X52.3646 Y15.2464
G01 X52.3745 Y15.2861
G01 X52.3800 Y15.3218
G01 X52.3809 Y15.3316
G01 X52.3826 Y15.3676
G01 X52.3826 Y35.1419
G01 X54.6418 Y37.4011
G01 X54.6535 Y37.3974
G01 X54.7296 Y37.3784
G01 X54.7393 Y37.3765
G01 X54.8218 Y37.3643
G01 X54.9100 Y37.3600
G01 X54.9982 Y37.3643
G01 X55.0807 Y37.3765
G01 X55.0904 Y37.3784
G01 X55.1713 Y37.3988
G01 X55.2498 Y37.4267
G01 X55.2589 Y37.4305
G01 X55.3343 Y37.4663
G01 X55.4100 Y37.5117
G01 X55.4771 Y37.5613
G01 X55.4847 Y37.5675
G01 X55.5464 Y37.6236
G01 X55.6041 Y37.6872
G01 X55.6087 Y37.6929
G01 X55.6583 Y37.7600
G01 X55.7037 Y37.8357
G01 X55.7415 Y37.9156
G01 X55.7697 Y37.9941
G01 X55.7726 Y38.0035
G01 X55.7927 Y38.0844
G01 X55.8051 Y38.1669
G01 X55.8060 Y38.1767
G01 X55.8099 Y38.2551
G01 X55.8099 Y38.2649
G01 X55.8057 Y38.3482
G01 X55.7927 Y38.4356
G01 X55.7712 Y38.5213
G01 X55.7415 Y38.6044
G01 X55.7037 Y38.6843
G01 X55.6583 Y38.7600
G01 X55.6057 Y38.8310
G01 X55.5464 Y38.8964
G01 X55.4810 Y38.9557
G01 X55.4100 Y39.0083
G01 X55.3343 Y39.0537
G01 X55.2544 Y39.0915
G01 X55.1713 Y39.1212
G01 X55.0856 Y39.1427
G01 X54.9982 Y39.1557
G01 X54.9149 Y39.1599
G01 X54.9051 Y39.1599
G01 X54.8218 Y39.1557
G01 X54.7393 Y39.1435
G01 X54.7296 Y39.1416
G01 X54.6535 Y39.1226
G01 X54.6441 Y39.1197
G01 X54.5656 Y39.0915
G01 X54.4857 Y39.0537
G01 X54.4100 Y39.0083
G01 X54.3429 Y38.9587
G01 X54.3372 Y38.9541
G01 X54.2736 Y38.8964
G01 X54.2175 Y38.8347
G01 X54.2113 Y38.8271
G01 X54.1617 Y38.7600
G01 X54.1163 Y38.6843
G01 X54.0805 Y38.6089
G01 X54.0767 Y38.5998
G01 X54.0488 Y38.5213
G01 X54.0273 Y38.4356
G01 X54.0149 Y38.3531
G01 X54.0140 Y38.3433
G01 X54.0100 Y38.2600
G01 X54.0143 Y38.1718
G01 X54.0265 Y38.0893
G01 X54.0284 Y38.0796
G01 X54.0474 Y38.0035
G01 X54.0511 Y37.9918
G01 X51.6679 Y35.6085
G01 X51.6420 Y35.5799
G01 X51.6205 Y35.5510
G01 X51.6150 Y35.5428
G01 X51.5966 Y35.5118
G01 X51.5790 Y35.4747
G01 X51.5668 Y35.4408
G01 X51.5639 Y35.4314
G01 X51.5548 Y35.3940
G01 X51.5493 Y35.3558
G01 X51.5472 Y35.3149
G01 X51.5472 Y15.5406
